!!!!SEGMENT: pl-sa--l-1643--012_anonim--magnificat.krn
!!!cenid: 16xx:1367
!!!COM: Anonim
!!!COM-rismid: pe30004985
!!!CDT:
!!!CNT:
!!!OTL: Magnificat
!!!PDT:
!!!AGN: Sacred
!!!SMS-siglum: PL-SA
!!!SMS-shelfmark: L 1643
!!!SMS-shelfwork: 012 W
!!!SMS-variant:
!!!SMS-altvar:
!!!NIFC-rismid: 1001064478
!!!URL-scan: http://repozytorium.nifc.pl/skany/pl-sa-nut--l1643
!!!ONB-nifc: UWAGA: 8 ksiąg. Primi chori: 1mus Cantus (s. 35-37), C 2dus (s. 23-24), C 3tius (brak), Bassus (s. 32-34); Secondi chori: Primus Cantus (s. 34-36), C 2dus (s. 33-35), Altus (s. 33-35), Bassus (s. 34-35). UWAGA: metrum 2/2 i 3/2
!!!key:
**kern	**text	**kern	**text	**kern	**text	**kern	**text	**kern	**text	**kern	**kern	**text	**kern	**text
*part8	*part8	*part7	*part7	*part6	*part6	*part5	*part5	*part4	*part4	*part3	*part2	*part2	*part1	*part1
*staff8	*staff8	*staff7	*staff7	*staff6	*staff6	*staff5	*staff5	*staff4	*staff4	*staff3	*staff2	*staff2	*staff1	*staff1
*Iempty	*	*Iempty	*	*Iempty	*	*Iempty	*	*Iempty	*	*Iempty	*Iempty	*	*Iempty	*
*I"Baſsus 2di Chori	*	*I"Altus secundi Chori.	*	*I"Cantus 2dus Secundi Chori.	*	*I"Primus Cantus 2di Chori	*	*I"Bassus Primi Chori.	*	*I"Cantus 3tius Primi Chori	*I"Cantus 2dus Primi Chori.	*	*I"1m(us) Cantus Primi Chori	*
*I'B Coro 2	*	*I'A Coro 2	*	*I'C 2 Coro 2	*	*I'C 1 Coro 2	*	*I'B Coro 1	*	*I'C 3 Coro 1	*I'C 2 Coro 1	*	*I'C 1 Coro 1	*
*clefC3	*	*clefC1	*	*clefC1	*	*clefC1	*	*clefC3	*	*clefG2	*clefC1	*	*clefG2	*
*k[]	*	*k[]	*	*k[]	*	*k[]	*	*k[]	*	*k[]	*k[]	*	*k[]	*
*C:	*	*C:	*	*C:	*	*C:	*	*C:	*	*C:	*C:	*	*C:	*
*M3/2	*	*M3/2	*	*M3/2	*	*M3/2	*	*M3/2	*	*M3/2	*M3/2	*	*M3/2	*
=1-	=1-	=1-	=1-	=1-	=1-	=1-	=1-	=1-	=1-	=1-	=1-	=1-	=1-	=1-
!	!	!	!	!	!	!	!	!	!	!LO:TX:t=P:problem=brak źródła	!LO:TX:t=P:problem=przed 3/2 metrum C|	!	!	!
!LO:TX:t=Octaui Toni	!	!	!	!LO:TX:t=Octaui Toni.	!	!LO:TX:t=Octaui Toni.	!	!LO:TX:t=Octaui. Toni. A. 8. Vocib(us)	!	!	!	!	!LO:TX:t=8 Toni I. Chori.	!
00.r	.	00.r	.	00.r	.	00.r	.	0.r	.	1.ryy	0.r	.	1g	Et
.	.	.	.	.	.	.	.	.	.	.	.	.	1a/	e-
=2-	=2-	=2-	=2-	=2-	=2-	=2-	=2-	=2-	=2-	=2-	=2-	=2-	=2-	=2-
.	.	.	.	.	.	.	.	.	.	1.ryy	.	.	.	.
.	.	.	.	.	.	.	.	.	.	.	.	.	1g	-xul-
=3-	=3-	=3-	=3-	=3-	=3-	=3-	=3-	=3-	=3-	=3-	=3-	=3-	=3-	=3-
.	.	.	.	.	.	.	.	1c	Et	1.ryy	1g	Et	0cc	-ta-
.	.	.	.	.	.	.	.	1f\	e-	.	1a\	e-	.	.
=4-	=4-	=4-	=4-	=4-	=4-	=4-	=4-	=4-	=4-	=4-	=4-	=4-	=4-	=4-
.	.	.	.	.	.	.	.	.	.	1.ryy	.	.	.	.
.	.	.	.	.	.	.	.	1e	-xul-	.	1g	-xul-	1cc	-vit
=5-	=5-	=5-	=5-	=5-	=5-	=5-	=5-	=5-	=5-	=5-	=5-	=5-	=5-	=5-
0.r	.	0.r	.	0.r	.	0.r	.	0f<	-ta-	1.ryy	0cc	-ta-	00.r	.
=6-	=6-	=6-	=6-	=6-	=6-	=6-	=6-	=6-	=6-	=6-	=6-	=6-	=6-	=6-
.	.	.	.	.	.	.	.	.	.	1.ryy	.	.	.	.
.	.	.	.	.	.	.	.	1c,<	-vit,	.	1cc,<	-vit	.	.
=7-	=7-	=7-	=7-	=7-	=7-	=7-	=7-	=7-	=7-	=7-	=7-	=7-	=7-	=7-
1c	Et	1e	Et	1g	Et	1g	Et	1c	Et	1.ryy	1cc	spi-	.	.
1f\	e-	1a\	e-	1f/	e-	1a\	e-	1A/	e-	.	1cc\	-ri-	.	.
=8-	=8-	=8-	=8-	=8-	=8-	=8-	=8-	=8-	=8-	=8-	=8-	=8-	=8-	=8-
.	.	.	.	.	.	.	.	.	.	1.ryy	.	.	.	.
1e	-xul-	1e	-xul-	1e	-xul-	1g	-xul-	1c	-xul-	.	1cc	-tus	.	.
=9-	=9-	=9-	=9-	=9-	=9-	=9-	=9-	=9-	=9-	=9-	=9-	=9-	=9-	=9-
0f	-ta-	0c	-ta-	0a	-ta-	0cc	-ta-	0F	-ta-	1.ryy	1.a	.	0.r	.
=10-	=10-	=10-	=10-	=10-	=10-	=10-	=10-	=10-	=10-	=10-	=10-	=10-	=10-	=10-
!	!	!	!	!	!	!	!	!	!	!	!	!	!LO:TX:t=P:problem=kreska pseudotaktowa	!
.	.	.	.	.	.	.	.	.	.	1.ryy	2b\	.	.	.
1c	-vit	1c	-vit	1g	-vit	1cc	-vit	1c	-vit,	.	1cc	.	.	.
=11-	=11-	=11-	=11-	=11-	=11-	=11-	=11-	=11-	=11-	=11-	=11-	=11-	=11-	=11-
00.r	.	00.r	.	00.r	.	00.r	.	00.r	.	1.ryy	00.r	.	1cc	spi-
.	.	.	.	.	.	.	.	.	.	.	.	.	1b\	-ri-
=12-	=12-	=12-	=12-	=12-	=12-	=12-	=12-	=12-	=12-	=12-	=12-	=12-	=12-	=12-
.	.	.	.	.	.	.	.	.	.	1.ryy	.	.	.	.
.	.	.	.	.	.	.	.	.	.	.	.	.	1cc	-tus.
=13-	=13-	=13-	=13-	=13-	=13-	=13-	=13-	=13-	=13-	=13-	=13-	=13-	=13-	=13-
.	.	.	.	.	.	.	.	.	.	1.ryy	.	.	0dd	me-
=14-	=14-	=14-	=14-	=14-	=14-	=14-	=14-	=14-	=14-	=14-	=14-	=14-	=14-	=14-
.	.	.	.	.	.	.	.	.	.	1.ryy	.	.	.	.
.	.	.	.	.	.	.	.	.	.	.	.	.	1cc	-us
=15-	=15-	=15-	=15-	=15-	=15-	=15-	=15-	=15-	=15-	=15-	=15-	=15-	=15-	=15-
1c	spi-	1c	spi-	1g	ſpi-	1cc	spi-	1c	spi-	1.ryy	1ee	spi-	00.r	.
1c\	-ri-	1c/	-ri-	1g\	-ri-	1cc\	-ri-	1c\	-ri-	.	1ee\	-ri-	.	.
=16-	=16-	=16-	=16-	=16-	=16-	=16-	=16-	=16-	=16-	=16-	=16-	=16-	=16-	=16-
.	.	.	.	.	.	.	.	.	.	1.ryy	.	.	.	.
1c	-tus	1g	-tus	1g	-tus	1cc	-tus	1c	-tus	.	1ee	-tus	.	.
=17-	=17-	=17-	=17-	=17-	=17-	=17-	=17-	=17-	=17-	=17-	=17-	=17-	=17-	=17-
0G	me-	0d	me-	0g	me-	0dd	me-	0g	me-	1.ryy	0dd	me-	.	.
=18-	=18-	=18-	=18-	=18-	=18-	=18-	=18-	=18-	=18-	=18-	=18-	=18-	=18-	=18-
!	!	!	!	!	!	!	!	!	!	!	!	!	!LO:TX:t=P:problem=kreska pseudotaktowa	!
.	.	.	.	.	.	.	.	.	.	1.ryy	.	.	.	.
1c	-us	1e	-us	1e	-us	1cc	-us	1c	-us	.	1cc	-us	.	.
=19-	=19-	=19-	=19-	=19-	=19-	=19-	=19-	=19-	=19-	=19-	=19-	=19-	=19-	=19-
00.r	.	00.r	.	00.r	.	00.r	.	00.r	.	1.ryy	00.r	.	1ee	spi-
.	.	.	.	.	.	.	.	.	.	.	.	.	1dd	-ri-
=20-	=20-	=20-	=20-	=20-	=20-	=20-	=20-	=20-	=20-	=20-	=20-	=20-	=20-	=20-
.	.	.	.	.	.	.	.	.	.	1.ryy	.	.	.	.
.	.	.	.	.	.	.	.	.	.	.	.	.	1cc	-tus
=21-	=21-	=21-	=21-	=21-	=21-	=21-	=21-	=21-	=21-	=21-	=21-	=21-	=21-	=21-
.	.	.	.	.	.	.	.	.	.	1.ryy	.	.	0dd	me-
=22-	=22-	=22-	=22-	=22-	=22-	=22-	=22-	=22-	=22-	=22-	=22-	=22-	=22-	=22-
.	.	.	.	.	.	.	.	.	.	1.ryy	.	.	.	.
.	.	.	.	.	.	.	.	.	.	.	.	.	1cc	-us
=23-	=23-	=23-	=23-	=23-	=23-	=23-	=23-	=23-	=23-	=23-	=23-	=23-	=23-	=23-
1c	spi-	1g	ſpi-	1cc	spi-	1ee	spi-	00.r	.	1.ryy	00.r	.	00.r	.
1G/	-ri-	1g\	-ri-	1b\	-ri-	1dd\	-ri-	.	.	.	.	.	.	.
=24-	=24-	=24-	=24-	=24-	=24-	=24-	=24-	=24-	=24-	=24-	=24-	=24-	=24-	=24-
.	.	.	.	.	.	.	.	.	.	1.ryy	.	.	.	.
1A	-tus	1e	-tus	1a	-tus	1cc	-tus	.	.	.	.	.	.	.
=25-	=25-	=25-	=25-	=25-	=25-	=25-	=25-	=25-	=25-	=25-	=25-	=25-	=25-	=25-
0G	me-	0g	me-	0dd	me-	0dd	me-	.	.	1.ryy	.	.	.	.
=26-	=26-	=26-	=26-	=26-	=26-	=26-	=26-	=26-	=26-	=26-	=26-	=26-	=26-	=26-
.	.	.	.	.	.	.	.	.	.	1.ryy	.	.	.	.
1c,<	-us,	1g,<	-us	1cc,	-us,	1ee,	-us,	.	.	.	.	.	.	.
=27-	=27-	=27-	=27-	=27-	=27-	=27-	=27-	=27-	=27-	=27-	=27-	=27-	=27-	=27-
*	*	*	*ij	*	*	*	*ij	*	*	*	*	*	*	*
1c	spi-	1g	ſpi-	1cc	spi-	1cc	spi-	1c	spi-	1.ryy	1ee	spi-	00.r	.
1c\	-ri-	1g\	-ri-	1cc\	-ri-	1cc\	-ri-	1c\	-ri-	.	1cc\	-ri-	.	.
=28-	=28-	=28-	=28-	=28-	=28-	=28-	=28-	=28-	=28-	=28-	=28-	=28-	=28-	=28-
!	!	!	!	!LO:SIC:v:t=custos g	!	!	!	!	!	!	!LO:SIC:v:t=custos ee	!	!	!
.	.	.	.	.	.	.	.	.	.	1.ryy	.	.	.	.
!LO:SIC:v:t=custos G	!	!	!	!LO:LB:g=original	!	!	!	!	!	!	!LO:LB:g=original	!	!	!
1c	-tus	1e	-tus	1g	-tus	1cc	-tus	1c	-tus	.	1ee	-tus	.	.
=29-	=29-	=29-	=29-	=29-	=29-	=29-	=29-	=29-	=29-	=29-	=29-	=29-	=29-	=29-
!LO:LB:g=original	!	!	!	!	!	!	!	!	!	!	!	!	!	!
!LO:TX:t=P:problem=metrum 3/2	!	!	!	!	!	!	!	!	!	!	!	!	!	!
0G	me-	0g	me-	0b	me-	0dd	me-	0G	me-	1.ryy	0dd	me-	.	.
=30-	=30-	=30-	=30-	=30-	=30-	=30-	=30-	=30-	=30-	=30-	=30-	=30-	=30-	=30-
!	!	!LO:SIC:v:t=custos e	!	!	!	!	!	!LO:SIC:v:t=custos c	!	!	!	!	!LO:TX:t=P:problem=kreska pseudotaktowa	!
.	.	.	.	.	.	.	.	.	.	1.ryy	.	.	.	.
!	!	!LO:TX:t=P:problem=metrum 3/2	!	!	!	!	!	!	!	!	!	!	!	!
!	!	!LO:LB:g=original	!	!	!	!LO:SIC:v:t=custos cc	!	!LO:LB:g=original	!	!LO:TX:T=P	!	!	!	!
1c	-us	1e	-us	1g	-us,	1ee	-us,	1c	-us	.	1cc	-us	.	.
*	*	*	*Xij	*	*	*	*Xij	*	*	*	*	*	*	*
=31-	=31-	=31-	=31-	=31-	=31-	=31-	=31-	=31-	=31-	=31-	=31-	=31-	=31-	=31-
!	!	!	!	!	!	!LO:LB:g=original	!	!	!	!	!	!	!LO:SIC:v:t=custos dd	!
0.r	.	0.r	.	0.r	.	0.r	.	0.r	.	1.ryy	0.r	.	1cc	in
!	!	!	!	!	!	!	!	!	!	!	!	!	!LO:LB:g=original	!
.	.	.	.	.	.	.	.	.	.	.	.	.	1dd	De-
=32-	=32-	=32-	=32-	=32-	=32-	=32-	=32-	=32-	=32-	=32-	=32-	=32-	=32-	=32-
.	.	.	.	.	.	.	.	.	.	1.ryy	.	.	.	.
.	.	.	.	.	.	.	.	.	.	.	.	.	1ee	-o
=33-	=33-	=33-	=33-	=33-	=33-	=33-	=33-	=33-	=33-	=33-	=33-	=33-	=33-	=33-
1c	in	1g	in	1g	in	1cc	in	1c	in	1.ryy	1cc	in	0.r	.
1G/	De-	1g\	De-	1b\	De-	1dd\	De-	1g\	De-	.	1b\	De-	.	.
=34-	=34-	=34-	=34-	=34-	=34-	=34-	=34-	=34-	=34-	=34-	=34-	=34-	=34-	=34-
!	!	!	!	!	!	!	!	!	!	!	!	!	!LO:TX:t=P:problem=kreska pseudotaktowa	!
.	.	.	.	.	.	.	.	.	.	1.ryy	.	.	.	.
1c	-o	1e	-o	1g	-o,	1ee	-o,	1c	-o	.	1cc	-o	.	.
=35-	=35-	=35-	=35-	=35-	=35-	=35-	=35-	=35-	=35-	=35-	=35-	=35-	=35-	=35-
0.r	.	0.r	.	0.r	.	0.r	.	0.r	.	1.ryy	0.r	.	1ee	in
.	.	.	.	.	.	.	.	.	.	.	.	.	1ff	De-
=36-	=36-	=36-	=36-	=36-	=36-	=36-	=36-	=36-	=36-	=36-	=36-	=36-	=36-	=36-
.	.	.	.	.	.	.	.	.	.	1.ryy	.	.	.	.
.	.	.	.	.	.	.	.	.	.	.	.	.	1ee	-o
=37-	=37-	=37-	=37-	=37-	=37-	=37-	=37-	=37-	=37-	=37-	=37-	=37-	=37-	=37-
*	*ij	*	*ij	*	*ij	*	*	*	*	*	*	*	*	*
1c	in	1g	in	1e	in	1ee	in	1c	in	1.ryy	1cc	in	0.r	.
1F/	De-	1f/	De-	1a\	De-	1ff\	De-	1f\	De-	.	1a\	De-	.	.
=38-	=38-	=38-	=38-	=38-	=38-	=38-	=38-	=38-	=38-	=38-	=38-	=38-	=38-	=38-
!	!	!	!	!	!	!	!	!	!	!	!	!	!LO:TX:t=P:problem=kreska pseudotaktowa	!
.	.	.	.	.	.	.	.	.	.	1.ryy	.	.	.	.
1c	-o	1g	-o	1e	-o,	1ee	-o,	1c	-o	.	1cc	-o	.	.
*	*Xij	*	*Xij	*	*Xij	*	*	*	*	*	*	*	*	*
=39-	=39-	=39-	=39-	=39-	=39-	=39-	=39-	=39-	=39-	=39-	=39-	=39-	=39-	=39-
0.r	.	0.r	.	0.r	.	0.r	.	0.r	.	1.ryy	0.r	.	1ee	in
.	.	.	.	.	.	.	.	.	.	.	.	.	1dd	De-
=40-	=40-	=40-	=40-	=40-	=40-	=40-	=40-	=40-	=40-	=40-	=40-	=40-	=40-	=40-
.	.	.	.	.	.	.	.	.	.	1.ryy	.	.	.	.
.	.	.	.	.	.	.	.	.	.	.	.	.	1cc	-o
=41-	=41-	=41-	=41-	=41-	=41-	=41-	=41-	=41-	=41-	=41-	=41-	=41-	=41-	=41-
1c	in	1g	in	1g	in	1ee	in	1c	in	1.ryy	1cc	in	0.r	.
1G/	De-	1g\	De-	1b\	De-	1dd\	De-	1g\	De-	.	1b\	De-	.	.
=42-	=42-	=42-	=42-	=42-	=42-	=42-	=42-	=42-	=42-	=42-	=42-	=42-	=42-	=42-
!	!	!	!	!	!	!	!	!	!	!	!	!	!LO:TX:t=P:problem=kreska pseudotaktowa	!
.	.	.	.	.	.	.	.	.	.	1.ryy	.	.	.	.
1c	-o	1e	-o	1g	-o	1cc	-o,	1c	-o	.	1cc	-o	.	.
=43-	=43-	=43-	=43-	=43-	=43-	=43-	=43-	=43-	=43-	=43-	=43-	=43-	=43-	=43-
00.r	.	00.r	.	00.r	.	00.r	.	00.r	.	1.ryy	00.r	.	0cc	ſa-
=44-	=44-	=44-	=44-	=44-	=44-	=44-	=44-	=44-	=44-	=44-	=44-	=44-	=44-	=44-
.	.	.	.	.	.	.	.	.	.	1.ryy	.	.	.	.
.	.	.	.	.	.	.	.	.	.	.	.	.	1cc	-lu-
=45-	=45-	=45-	=45-	=45-	=45-	=45-	=45-	=45-	=45-	=45-	=45-	=45-	=45-	=45-
.	.	.	.	.	.	.	.	.	.	1.ryy	.	.	0b	-ta-
=46-	=46-	=46-	=46-	=46-	=46-	=46-	=46-	=46-	=46-	=46-	=46-	=46-	=46-	=46-
.	.	.	.	.	.	.	.	.	.	1.ryy	.	.	.	.
.	.	.	.	.	.	.	.	.	.	.	.	.	1cc	-ri
=47-	=47-	=47-	=47-	=47-	=47-	=47-	=47-	=47-	=47-	=47-	=47-	=47-	=47-	=47-
0.r	.	0.r	.	0.r	.	0.r	.	00.r	.	1.ryy	00.r	.	0a	me-
=48-	=48-	=48-	=48-	=48-	=48-	=48-	=48-	=48-	=48-	=48-	=48-	=48-	=48-	=48-
.	.	.	.	.	.	.	.	.	.	1.ryy	.	.	.	.
.	.	.	.	.	.	.	.	.	.	.	.	.	1g	-o
=49-	=49-	=49-	=49-	=49-	=49-	=49-	=49-	=49-	=49-	=49-	=49-	=49-	=49-	=49-
0c	ſa-	0e	ſa-	0g	ſa-	0cc	ſa-	.	.	1.ryy	.	.	00.r	.
=50-	=50-	=50-	=50-	=50-	=50-	=50-	=50-	=50-	=50-	=50-	=50-	=50-	=50-	=50-
.	.	.	.	.	.	.	.	.	.	1.ryy	.	.	.	.
1c	-lu-	1e	-lu-	1g	-lu-	1cc	-lu-	.	.	.	.	.	.	.
=51-	=51-	=51-	=51-	=51-	=51-	=51-	=51-	=51-	=51-	=51-	=51-	=51-	=51-	=51-
0G	-ta-	0d	-ta-	0g	-ta-	0b	-ta-	00.r	.	1.ryy	00.r	.	.	.
=52-	=52-	=52-	=52-	=52-	=52-	=52-	=52-	=52-	=52-	=52-	=52-	=52-	=52-	=52-
.	.	.	.	.	.	.	.	.	.	1.ryy	.	.	.	.
1c	-ri	1g	-ri	1g	-ri	1cc	-ri	.	.	.	.	.	.	.
=53-	=53-	=53-	=53-	=53-	=53-	=53-	=53-	=53-	=53-	=53-	=53-	=53-	=53-	=53-
!	!	!LO:TX:t=P:problem=# below	!	!	!	!	!	!	!	!	!	!	!	!
0d	me-	0f#X	me-	0dd	me-	0a	me-	.	.	1.ryy	.	.	0.r	.
=54-	=54-	=54-	=54-	=54-	=54-	=54-	=54-	=54-	=54-	=54-	=54-	=54-	=54-	=54-
!	!	!	!	!	!	!	!	!	!	!	!	!	!LO:TX:t=P:problem=kreska pseudotaktowa	!
.	.	.	.	.	.	.	.	.	.	1.ryy	.	.	.	.
1G	-o	1g	-o	1b	-o	1g	-o	.	.	.	.	.	.	.
=55-	=55-	=55-	=55-	=55-	=55-	=55-	=55-	=55-	=55-	=55-	=55-	=55-	=55-	=55-
0.r	.	0.r	.	0.r	.	0.r	.	0c	ſa-	1.ryy	0ee	ſa-	0cc	ſa-
=56-	=56-	=56-	=56-	=56-	=56-	=56-	=56-	=56-	=56-	=56-	=56-	=56-	=56-	=56-
.	.	.	.	.	.	.	.	.	.	1.ryy	.	.	.	.
!	!	!	!	!	!	!	!	!	!	!	!	!	!LO:SIC:v:t=custos ee	!
.	.	.	.	.	.	.	.	1B	-lu-	.	1dd	-lu-	1dd	-lu-
=57-	=57-	=57-	=57-	=57-	=57-	=57-	=57-	=57-	=57-	=57-	=57-	=57-	=57-	=57-
*	*	*	*	*	*ij	*	*	*	*	*	*	*	*	*
!	!	!	!	!	!	!	!	!	!	!	!	!	!LO:LB:g=original	!
0c	ſa-	0g	ſa-	0ee	ſa-	0cc	ſa-	0c	-ta-	1.ryy	0cc	-ta-	0ee	-ta-
=58-	=58-	=58-	=58-	=58-	=58-	=58-	=58-	=58-	=58-	=58-	=58-	=58-	=58-	=58-
.	.	.	.	.	.	.	.	.	.	1.ryy	.	.	.	.
1B	-lu-	1g	-lu-	1b	-lu-	1dd	-lu-	1G	-ri	.	1g	-ri	1dd	-ri
=59-	=59-	=59-	=59-	=59-	=59-	=59-	=59-	=59-	=59-	=59-	=59-	=59-	=59-	=59-
0c	-ta-	0e	-ta-	0g	-ta-	0ee	-ta-	0.r	.	1.ryy	0.r	.	0.r	.
=60-	=60-	=60-	=60-	=60-	=60-	=60-	=60-	=60-	=60-	=60-	=60-	=60-	=60-	=60-
.	.	.	.	.	.	.	.	.	.	1.ryy	.	.	.	.
1G	-ri	1g,<	-ri	1g	-ri	1dd	-ri	.	.	.	.	.	.	.
=61-	=61-	=61-	=61-	=61-	=61-	=61-	=61-	=61-	=61-	=61-	=61-	=61-	=61-	=61-
!LO:TX:t=P:problem=w taktach 61-68 niewidoczny tekst	!	!	!	!	!	!	!	!	!	!	!	!	!	!
0c	.	0e	ſa-	0g	me-	0cc	ſa-	0c	ſa-	1.ryy	0ee	ſa-	0cc	ſa-
=62-	=62-	=62-	=62-	=62-	=62-	=62-	=62-	=62-	=62-	=62-	=62-	=62-	=62-	=62-
.	.	.	.	.	.	.	.	.	.	1.ryy	.	.	.	.
1G	.	1g	-lu-	1g	-o	1b	-lu-	1B	-lu-	.	1dd	-lu-	1dd	-lu-
*	*	*	*	*	*Xij	*	*	*	*	*	*	*	*	*
=63-	=63-	=63-	=63-	=63-	=63-	=63-	=63-	=63-	=63-	=63-	=63-	=63-	=63-	=63-
0c	.	0g	-ta-	0g	ſa-	0cc	-ta-	0c	-ta-	1.ryy	0cc	-ta-	0ee	-ta-
=64-	=64-	=64-	=64-	=64-	=64-	=64-	=64-	=64-	=64-	=64-	=64-	=64-	=64-	=64-
.	.	.	.	.	.	.	.	.	.	1.ryy	.	.	.	.
1B	.	1g	-ri	1g	-lu-	1dd	-ri	1g	-ri	.	1g	-ri	1dd	-ri
=65-	=65-	=65-	=65-	=65-	=65-	=65-	=65-	=65-	=65-	=65-	=65-	=65-	=65-	=65-
0.c	.	0.e	me-	0.g	-ta-	0.ee	me-	0.c	me-	1.ryy	0.g	me-	0.cc	me-
=66-	=66-	=66-	=66-	=66-	=66-	=66-	=66-	=66-	=66-	=66-	=66-	=66-	=66-	=66-
.	.	.	.	.	.	.	.	.	.	1.ryy	.	.	.	.
=67-	=67-	=67-	=67-	=67-	=67-	=67-	=67-	=67-	=67-	=67-	=67-	=67-	=67-	=67-
!	!	!	!	!LO:SIC:v:s:l=-ri	!	!	!	!	!	!	!	!	!	!
0.G	.	0.g;;	-o	0.g;	-rines	0.dd;<	-o	0.G;;	-o.	1.ryy	0.b;;	-o	0.dd;<	-o.
=68-	=68-	=68-	=68-	=68-	=68-	=68-	=68-	=68-	=68-	=68-	=68-	=68-	=68-	=68-
.	.	.	.	.	.	.	.	.	.	1.ryy	.	.	.	.
=69-	=69-	=69-	=69-	=69-	=69-	=69-	=69-	=69-	=69-	=69-	=69-	=69-	=69-	=69-
!LO:LB:g=original	!	!LO:PB:g=original	!	!LO:LB:g=original	!	!LO:LB:g=original	!	!LO:LB:g=original	!	!	!LO:LB:g=original	!	!LO:PB:g=original	!
*M2/2	*	*M2/2	*	*M2/2	*	*M2/2	*	*M2/2	*	*M2/2	*M2/2	*	*M2/2	*
*met(c|)	*	*met(c|)	*	*met(c|)	*	*met(c|)	*	*met(c|)	*	*	*met(c|)	*	*met(c|)	*
!LO:TX:t=P:problem=brak metrum	!	!LO:TX:t=P:problem=brak metrum	!	!LO:TX:t=P:problem=metrum 3/2	!	!LO:TX:t=P:problem=brak metrum	!	!LO:TX:t=P:problem=brak metrum	!	!	!LO:TX:t=P:problem=brak metrum	!	!	!
1.G	Qui-	1g	Qui-	2.dd\	Qui-	4b\	Qui-	1g	Qui-	1ryy	4dd\	Qui-	1.dd	Qui-
.	.	.	.	.	.	4cc\	.	.	.	.	4cc\	.	.	.
.	.	.	.	.	.	1dd\	-a	.	.	.	4b\	.	.	.
.	.	.	.	4cc\	.	.	.	.	.	.	4a\	.	.	.
=70-	=70-	=70-	=70-	=70-	=70-	=70-	=70-	=70-	=70-	=70-	=70-	=70-	=70-	=70-
.	.	1g	-a	1b	-a	.	.	2d\	-a	1ryy	4b\	.	.	.
.	.	.	.	.	.	.	.	.	.	.	4cc\	.	.	.
!	!	!	!	!	!	!	!	!LO:SIC:v:s:l=fe-	!	!	!	!	!	!
2G/	-a	.	.	.	.	2dd\	fe-	2.g\	fec-	.	4dd\	-a	2dd\	-a
.	.	.	.	.	.	.	.	.	.	.	4b\	.	.	.
=71-	=71-	=71-	=71-	=71-	=71-	=71-	=71-	=71-	=71-	=71-	=71-	=71-	=71-	=71-
2c/	fe-	2e/	fe-	2g/	fe-	2cc\	-cit	.	.	1ryy	2cc\	fe-	2ee\	fe-
.	.	.	.	.	.	.	.	4f\	.	.	.	.	.	.
2c/	-cit	2c/	-cit	2g/	-cit	4cc\	.	4e\	.	.	2cc\	-cit	2ee\	-cit
.	.	.	.	.	.	4dd\	.	4d\	.	.	.	.	.	.
=72-	=72-	=72-	=72-	=72-	=72-	=72-	=72-	=72-	=72-	=72-	=72-	=72-	=72-	=72-
2c/	mi-	2g/	mi-	2g/	[m]i-	2ee\	mi-	2c/	-cit	1ryy	2cc\	mi-	2ee\	mi-
2B/	-hi	2g/	-hi	2g/	-hi	2dd\	-hi	2G/	mi-	.	2dd\	-hi	2gg\	-hi
=73-	=73-	=73-	=73-	=73-	=73-	=73-	=73-	=73-	=73-	=73-	=73-	=73-	=73-	=73-
1c	ma-	2.e/	ma-	2.g/	ma-	1cc	ma-	4c/	-hi	1ryy	4ee\	ma-	1ee	ma-
.	.	.	.	.	.	.	.	4d\	ma-	.	4dd\	.	.	.
.	.	.	.	.	.	.	.	4e\	.	.	2cc\	.	.	.
.	.	4fny/	.	4a/	.	.	.	4f\	.	.	.	.	.	.
=74-	=74-	=74-	=74-	=74-	=74-	=74-	=74-	=74-	=74-	=74-	=74-	=74-	=74-	=74-
2G/	-gna	2g/	-gna	2b\	-gna	2b\	-gna	1g	-gna	1ryy	1dd	-gna	1dd	-gna
2G/	qui	2g/	qui	2b\	qui	2dd\	qui	.	.	.	.	.	.	.
=75-	=75-	=75-	=75-	=75-	=75-	=75-	=75-	=75-	=75-	=75-	=75-	=75-	=75-	=75-
2d\	po-	2f#X/	po-	2a\	po-	2dd\	po-	1r	.	1ryy	1r	.	1r	.
2e\	-tens	2g/	-tens	2g/	-tens	2cc\	-tens	.	.	.	.	.	.	.
=76-	=76-	=76-	=76-	=76-	=76-	=76-	=76-	=76-	=76-	=76-	=76-	=76-	=76-	=76-
1d	eſt	1f#X	eſt	1a	eſt,	1dd	eſt.	2r	.	1ryy	2r	.	2r	.
.	.	.	.	.	.	.	.	2d\	qui	.	2a\	qui	2dd\	qui
=77-	=77-	=77-	=77-	=77-	=77-	=77-	=77-	=77-	=77-	=77-	=77-	=77-	=77-	=77-
1r	.	1r	.	1r	.	1r	.	2B/	po-	1ryy	2b\	po-	2dd\	po-
.	.	.	.	.	.	.	.	2c/	-tens	.	2g/	-tens	2cc\	-tens
=78-	=78-	=78-	=78-	=78-	=78-	=78-	=78-	=78-	=78-	=78-	=78-	=78-	=78-	=78-
2r	.	2r	.	2r	.	2r	.	1G	eſt	1ryy	1dd	eſt	1b	eſt,
2G/	qui	2g/	qui	2b\	qui	2dd\	qui	.	.	.	.	.	.	.
=79-	=79-	=79-	=79-	=79-	=79-	=79-	=79-	=79-	=79-	=79-	=79-	=79-	=79-	=79-
2B/	po-	2g/	po-	2g/	po-	2dd\	po-	1r	.	1ryy	1r	.	1r	.
2c/	-tens	2e/	-tens	2cc\	-tens	2cc\	-tens	.	.	.	.	.	.	.
=80-	=80-	=80-	=80-	=80-	=80-	=80-	=80-	=80-	=80-	=80-	=80-	=80-	=80-	=80-
1G	eſt	1g	eſt	1dd	eſt,	1b	eſt,	2r	.	1ryy	2r	.	2r	.
.	.	.	.	.	.	.	.	2g\	qui	.	2b\	qui	2dd\	qui
=81-	=81-	=81-	=81-	=81-	=81-	=81-	=81-	=81-	=81-	=81-	=81-	=81-	=81-	=81-
1r	.	1r	.	1r	.	1r	.	2e\	po-	1ryy	2b\	po-	2ee\	po-
.	.	.	.	.	.	.	.	2c/	-tens	.	2cc\	-tens	2ee\	-tens
=82-	=82-	=82-	=82-	=82-	=82-	=82-	=82-	=82-	=82-	=82-	=82-	=82-	=82-	=82-
2r	.	2r	.	2r	.	2r	.	2g,<\	eſt,	1ryy	2b\	eſt	2dd,<\	eſt
!	!	!	!	!	!	!	!	!	!	!	!LO:SIC:v:t=custos cc	!	!	!
2g\	qui	2g/	qui	2b\	qui	2dd\	/qui	2G/	qui	.	2dd\	qui	2b/	qui
=83-	=83-	=83-	=83-	=83-	=83-	=83-	=83-	=83-	=83-	=83-	=83-	=83-	=83-	=83-
*	*	*	*	*	*	*	*	*	*ij	*	*	*	*	*
!	!	!	!	!	!	!	!	!	!	!	!LO:LB:g=original	!	!LO:SIC:v:t=custos ee	!
2e\	po-	2g/	po-	2g/	po-	2.ee\	po-	2c/	po-	1ryy	2cc\	po-	2ee\	po-
!	!	!LO:SIC:v:t=custos g	!	!	!	!	!	!	!	!	!	!LO:LB:g=original	!	!
2c/	-tens	2e/	-tens	2g/	-tens	.	.	2c/	-tens	.	2cc\	-tens	2ee\	-tens
!	!	!	!	!	!	!LO:SIC:v:t=custos dd	!	!	!	!	!	!	!	!
.	.	.	.	.	.	4cc\	-tens	.	.	.	.	.	.	.
=84-	=84-	=84-	=84-	=84-	=84-	=84-	=84-	=84-	=84-	=84-	=84-	=84-	=84-	=84-
!LO:SIC:v:t=custos c	!	!LO:LB:g=original	!	!LO:SIC:v:t=custos cc	!	!LO:LB:g=original	!	!LO:SIC:v:t=custos G	!	!	!	!	!	!
1g	eſt	1g	eſt	1b	eſt,	1dd	eſt,/	1G	eſt,	1ryy	1b	eſt	1dd	eſt.
*	*	*	*	*	*	*	*	*	*Xij	*	*	*	*	*
=85-	=85-	=85-	=85-	=85-	=85-	=85-	=85-	=85-	=85-	=85-	=85-	=85-	=85-	=85-
!LO:LB:g=original	!	!	!	!LO:LB:g=original	!	!	!	!LO:LB:g=original	!	!	!	!	!	!
1c	et	2r	.	2.cc\	et	2r	.	00r	.	1ryy	00r	.	00r	.
.	.	2g/	et	.	.	2ee\	et	.	.	.	.	.	.	.
.	.	.	.	4dd\	.	.	.	.	.	.	.	.	.	.
=86-	=86-	=86-	=86-	=86-	=86-	=86-	=86-	=86-	=86-	=86-	=86-	=86-	=86-	=86-
2c/	ſan-	4e/	ſan-	2ee\	ſan-	2ee\	san-	.	.	1ryy	.	.	.	.
.	.	4d/	.	.	.	.	.	.	.	.	.	.	.	.
!	!	!	!	!LO:TX:t=P:problem=niewyraźne źródło	!	!	!	!	!	!	!	!	!	!
2c/	-ctum	4e/	-ctum	2cc\	-ctum	2ee\	-ctum	.	.	.	.	.	.	.
.	.	4fny/	.	.	.	.	.	.	.	.	.	.	.	.
=87-	=87-	=87-	=87-	=87-	=87-	=87-	=87-	=87-	=87-	=87-	=87-	=87-	=87-	=87-
2B/	no-	2g/	no-	2dd\	no-	2dd\	no-	.	.	1ryy	.	.	.	.
2c/	-men	1g\	-men	2g/	-men	2ee\	-men	.	.	.	.	.	.	.
=88-	=88-	=88-	=88-	=88-	=88-	=88-	=88-	=88-	=88-	=88-	=88-	=88-	=88-	=88-
1A	e-	.	.	1a	e-	1cc	e-	.	.	1ryy	.	.	.	.
!	!	!LO:TX:t=P:problem=# below	!	!	!	!	!	!	!	!	!	!	!	!
.	.	2f#X/	e-	.	.	.	.	.	.	.	.	.	.	.
=89-	=89-	=89-	=89-	=89-	=89-	=89-	=89-	=89-	=89-	=89-	=89-	=89-	=89-	=89-
1G	-ius	1g	-ius.	1b	-ius,	1b	-ius.	2r	.	1ryy	2r	.	2r	.
.	.	.	.	.	.	.	.	2G/	et	.	2b\	et	2dd\	et
=90-	=90-	=90-	=90-	=90-	=90-	=90-	=90-	=90-	=90-	=90-	=90-	=90-	=90-	=90-
2r	.	2r	.	2r	.	2r	.	2c/	ſan-	1ryy	2cc\	ſan-	2ee\	ſan-
2G/	et	2g/	et	2b\	et	2dd\	et	2G/	-ctum	.	2b\	-ctum	2dd\	-ctum
=91-	=91-	=91-	=91-	=91-	=91-	=91-	=91-	=91-	=91-	=91-	=91-	=91-	=91-	=91-
2c/	ſan-	2e/	ſan-	2cc\	ſan-	2ee\	ſan-	2r	.	1ryy	2r	.	2r	.
2G/	-ctum	2g/	-ctum	2b\	-ctum	2dd\	-ctum	2g\	et	.	2b\	et	2dd\	et
=92-	=92-	=92-	=92-	=92-	=92-	=92-	=92-	=92-	=92-	=92-	=92-	=92-	=92-	=92-
0r	.	0r	.	0r	.	0r	.	2d\	ſan-	1ryy	2dd\	ſan-	2ff\	ſan-
.	.	.	.	.	.	.	.	2d\	-ctum	.	2a\	-ctum	2ff\	-ctum
=93-	=93-	=93-	=93-	=93-	=93-	=93-	=93-	=93-	=93-	=93-	=93-	=93-	=93-	=93-
.	.	.	.	.	.	.	.	2f\	no-	1ryy	2.cc\	no-	2cc\	no-
.	.	.	.	.	.	.	.	2c/	-men	.	.	.	2ee\	-men
.	.	.	.	.	.	.	.	.	.	.	4b\	-men	.	.
=94-	=94-	=94-	=94-	=94-	=94-	=94-	=94-	=94-	=94-	=94-	=94-	=94-	=94-	=94-
2r	.	4a\	no-	2r	.	2r	.	0.d	e-	1ryy	2a\	e-	0.dd	e-
.	.	4g/	.	.	.	.	.	.	.	.	.	.	.	.
1d\	no-	4fny/	.	1a\	no-	2.dd\	no-	.	.	.	2dd\	-ius	.	.
.	.	4e/	.	.	.	.	.	.	.	.	.	.	.	.
=95-	=95-	=95-	=95-	=95-	=95-	=95-	=95-	=95-	=95-	=95-	=95-	=95-	=95-	=95-
.	.	1d	-men	.	.	.	.	.	.	1ryy	2r	.	.	.
.	.	.	.	.	.	4cc\	.	.	.	.	.	.	.	.
2d\	men	.	.	2d/	-men	2b\	-men	.	.	.	2dd\	no-	.	.
=96-	=96-	=96-	=96-	=96-	=96-	=96-	=96-	=96-	=96-	=96-	=96-	=96-	=96-	=96-
1d	e-	1d	e-	1a	e-	1a	e-	.	.	1ryy	2a\	-men	.	.
.	.	.	.	.	.	.	.	.	.	.	2dd\	e-	.	.
=97-	=97-	=97-	=97-	=97-	=97-	=97-	=97-	=97-	=97-	=97-	=97-	=97-	=97-	=97-
0G;;	-ius	0d;;	-ius.	0g	-ius.	0b;;	-ius	0G	-ius.	1ryy	0b;<	-ius	0dd;<	-ius.
=98-	=98-	=98-	=98-	=98-	=98-	=98-	=98-	=98-	=98-	=98-	=98-	=98-	=98-	=98-
!	!	!	!	!	!	!	!	!	!	!	!LO:SIC:v:t=custos g	!	!	!
.	.	.	.	.	.	.	.	.	.	1ryy	.	.	.	.
=99-	=99-	=99-	=99-	=99-	=99-	=99-	=99-	=99-	=99-	=99-	=99-	=99-	=99-	=99-
!LO:LB:g=original	!	!LO:LB:g=original	!	!LO:PB:g=original	!	!LO:LB:g=original	!	!LO:LB:g=original	!	!	!LO:LB:g=original	!	!LO:LB:g=original	!
*	*	*	*	*	*	*	*	*	*	*	*	*	*M2/2	*
*	*	*	*	*	*	*	*	*	*	*	*	*	*met(c|)	*
!	!	!LO:TX:t=Fecit	!	!LO:TX:t=Fecit	!	!	!	!LO:TX:t=Fecit.	!	!	!	!	!	!
00r	.	00r	.	00r	.	00r	.	0r	.	1ryy	2r	.	1g	Fe-
.	.	.	.	.	.	.	.	.	.	.	2g/	Fe-	.	.
=100-	=100-	=100-	=100-	=100-	=100-	=100-	=100-	=100-	=100-	=100-	=100-	=100-	=100-	=100-
.	.	.	.	.	.	.	.	.	.	1ryy	2g/	-cit	1a	-cit
.	.	.	.	.	.	.	.	.	.	.	2f/	po-	.	.
=101-	=101-	=101-	=101-	=101-	=101-	=101-	=101-	=101-	=101-	=101-	=101-	=101-	=101-	=101-
*	*	*	*	*	*	*	*	*	*	*	*	*	*lig	*
.	.	.	.	.	.	.	.	1r	.	1ryy	2.e/	-ten-	1g	po-
.	.	.	.	.	.	.	.	.	.	.	4d/	-ti-	.	.
=102-	=102-	=102-	=102-	=102-	=102-	=102-	=102-	=102-	=102-	=102-	=102-	=102-	=102-	=102-
.	.	.	.	.	.	.	.	2r	.	1ryy	2c/	-am	1cc	.
.	.	.	.	.	.	.	.	2c/	Po-	.	2g/	fe-	.	.
*	*	*	*	*	*	*	*	*	*	*	*	*	*Xlig	*
=103-	=103-	=103-	=103-	=103-	=103-	=103-	=103-	=103-	=103-	=103-	=103-	=103-	=103-	=103-
1r	.	1r	.	1r	.	1r	.	2A/	-ten-	1ryy	2a\	-cit	2cc\	-ten-
.	.	.	.	.	.	.	.	2F/	-ti-	.	2cc\	po-	2cc\	-ti-
=104-	=104-	=104-	=104-	=104-	=104-	=104-	=104-	=104-	=104-	=104-	=104-	=104-	=104-	=104-
2r	.	2r	.	2r	.	2r	.	2c,</	-am	1ryy	2.cc\	-ten-	0cc	-am
2c/	Po-	2e/	Po-	2g/	Po-	2g/	Fe-	2c/	po-	.	.	.	.	.
.	.	.	.	.	.	.	.	.	.	.	4cc\	-ti-	.	.
=105-	=105-	=105-	=105-	=105-	=105-	=105-	=105-	=105-	=105-	=105-	=105-	=105-	=105-	=105-
2A/	-ten-	2a\	-ten-	2f/	-ten-	2a\	-cit	2f\	-ten-	1ryy	0cc	-am	.	.
2F/	-ti-	2a\	-ti-	2f/	-ti-	2cc\	po-	2f\	-ti-	.	.	.	.	.
=106-	=106-	=106-	=106-	=106-	=106-	=106-	=106-	=106-	=106-	=106-	=106-	=106-	=106-	=106-
2c,</	-am,	2e/	-am	2e,</	-am,	2.cc\	-ten-	2c,</	-am,	1ryy	.	.	0r	.
2c/	po-	2e/	in	2g/	po-	.	.	2c/	po-	.	.	.	.	.
.	.	.	.	.	.	4cc\	-ti-	.	.	.	.	.	.	.
=107-	=107-	=107-	=107-	=107-	=107-	=107-	=107-	=107-	=107-	=107-	=107-	=107-	=107-	=107-
2.F/	-ten-	2.f/	bra-	2.a\	-ten-	0cc	-am	2.F/	-ten-	1ryy	1r	.	.	.
4F/	-ti-	4f/	-chi-	4a\	-ti-	.	.	4F/	-ti-	.	.	.	.	.
=108-	=108-	=108-	=108-	=108-	=108-	=108-	=108-	=108-	=108-	=108-	=108-	=108-	=108-	=108-
1c	-am	1e	-o	1g	-am.	.	.	2c/	-am	1ryy	2r	.	2r	.
.	.	.	.	.	.	.	.	2c/	in	.	2g/	in	2ee\	in
=109-	=109-	=109-	=109-	=109-	=109-	=109-	=109-	=109-	=109-	=109-	=109-	=109-	=109-	=109-
0r	.	0r	.	0r	.	0r	.	2.c/	bra-	1ryy	2.g/	bra-	2.ee\	bra-
.	.	.	.	.	.	.	.	4B/	-chi-	.	4g/	-chi-	4dd\	-chi-
=110-	=110-	=110-	=110-	=110-	=110-	=110-	=110-	=110-	=110-	=110-	=110-	=110-	=110-	=110-
.	.	.	.	.	.	.	.	2A/	-o	1ryy	2a\	-o	2cc\	-o
.	.	.	.	.	.	.	.	2A/	ſu-	.	2cc\	ſu-	2cc\	ſu-
=111-	=111-	=111-	=111-	=111-	=111-	=111-	=111-	=111-	=111-	=111-	=111-	=111-	=111-	=111-
2r	.	2r	.	2r	.	2r	.	1G	-o.	1ryy	1b	-o	1dd	-o,
2G/	in	2g/	in	2b\	in	2dd\	in	.	.	.	.	.	.	.
=112-	=112-	=112-	=112-	=112-	=112-	=112-	=112-	=112-	=112-	=112-	=112-	=112-	=112-	=112-
2.c\	bra-	2g/	bra-	2.g/	bra-	2.ee\	bra-	0r	.	1ryy	0r	.	0r	.
.	.	2g/	-chi-	.	.	.	.	.	.	.	.	.	.	.
4B\	-chi-	.	.	4g/	-chi-	4dd\	-chi-	.	.	.	.	.	.	.
=113-	=113-	=113-	=113-	=113-	=113-	=113-	=113-	=113-	=113-	=113-	=113-	=113-	=113-	=113-
1A	-o	2.e/	-o	4a\	-o	1cc	-o	.	.	1ryy	.	.	.	.
.	.	.	.	4b\	.	.	.	.	.	.	.	.	.	.
.	.	.	.	1cc\	.	.	.	.	.	.	.	.	.	.
.	.	4f/	.	.	.	.	.	.	.	.	.	.	.	.
=114-	=114-	=114-	=114-	=114-	=114-	=114-	=114-	=114-	=114-	=114-	=114-	=114-	=114-	=114-
1G	su-	1g	ſu-	.	.	1dd	ſu-	1r	.	1ryy	1r	.	1r	.
.	.	.	.	2b\	ſu-	.	.	.	.	.	.	.	.	.
=115-	=115-	=115-	=115-	=115-	=115-	=115-	=115-	=115-	=115-	=115-	=115-	=115-	=115-	=115-
1c	-o	1g	-o,	1cc	-o	1ee	-o	2r	.	1ryy	2r	.	2r	.
.	.	.	.	.	.	.	.	2c/	di-	.	2g/	di-	2ee\	di-
=116-	=116-	=116-	=116-	=116-	=116-	=116-	=116-	=116-	=116-	=116-	=116-	=116-	=116-	=116-
!	!	!	!	!	!	!	!	!	!	!	!LO:SIC:v:t=custos cc	!	!	!
2r	.	2r	.	2r	.	2r	.	2f\	-sper-	1ryy	2a\	-sper-	2cc\	-sper-
!	!	!	!	!	!	!	!	!LO:SIC:v:t=custos c	!	!	!LO:LB:g=original	!	!	!
2c/	di-	2e/	di-	2g/	di-	2ee\	di-	2c/	-sit	.	2cc\	-sit	2ee\	-sit,
=117-	=117-	=117-	=117-	=117-	=117-	=117-	=117-	=117-	=117-	=117-	=117-	=117-	=117-	=117-
!	!	!	!	!	!	!	!	!LO:LB:g=original	!	!	!	!	!	!
2f\	-sper-	2f/	-sper-	2a\	-sper-	2cc\	-sper-	2r	.	1ryy	2r	.	2r	.
!	!	!	!	!LO:SIC:v:t=custos cc	!	!	!	!	!	!	!	!	!	!
2c/	-sit	2g/	-sit	2cc\	-sit	2ee\	-sit	2c/	di-	.	2cc\	di-	2ee\	di-
=118-	=118-	=118-	=118-	=118-	=118-	=118-	=118-	=118-	=118-	=118-	=118-	=118-	=118-	=118-
!	!	!	!	!LO:LB:g=original	!	!	!	!	!	!	!	!	!	!
2r	.	2r	.	2r	.	2r	.	2F/	-sper-	1ryy	2a\	-sper-	2ff\	-sper-
!LO:SIC:v:t=custos G	!	!	!	!	!	!	!	!	!	!	!	!	!LO:SIC:v:t=custos ee	!
2c/	di-	2g/	di-	2cc\	di-	2ee\	di-	2c/	-[sit]	.	2cc\	-sit	2ee\	-sit
=119-	=119-	=119-	=119-	=119-	=119-	=119-	=119-	=119-	=119-	=119-	=119-	=119-	=119-	=119-
!LO:LB:g=original	!	!	!	!	!	!	!	!	!	!	!	!	!LO:LB:g=original	!
2G/	-sper-	2a\	-sper-	2cc\	-sper-	2ff\	-sper-	2r	.	1ryy	2r	.	2r	.
!	!	!LO:SIC:v:t=custos e	!	!	!	!	!	!	!	!	!LO:TX:t=P:problem=niewyraźne źródło	!	!LO:TX:t=P:tekst:problem= dispersit poprawione na ſuspersbos	!
2c/	-sit	2g/	-sit	2cc\	-sit	2ee\	-sit	2c/	ſu-	.	2cc\	ſu-	2ee\	ſu-
=120-	=120-	=120-	=120-	=120-	=120-	=120-	=120-	=120-	=120-	=120-	=120-	=120-	=120-	=120-
!	!	!LO:LB:g=original	!	!	!	!LO:SIC:v:t=custos ee	!	!	!	!	!	!	!LO:SIC:v:s:l=-per-	!
2r	.	2r	.	2r	.	2r	.	2F/	-per-	1ryy	2b\	-per-	2dd\	-sper-
!	!	!	!	!	!	!LO:LB:g=original	!	!	!	!	!	!	!	!
2c/	ſu-	2e/	ſu-	2cc\	ſu-	2ee\	ſu-	2c/	-bos	.	2cc\	-bos	2ee\	-bos
=121-	=121-	=121-	=121-	=121-	=121-	=121-	=121-	=121-	=121-	=121-	=121-	=121-	=121-	=121-
2G/	-per-	2g/	-per-	2b\	-per-	2dd\	-per-	1r	.	1ryy	00r	.	1r	.
2c/	-bos	2g/	-bos	2cc\	-bos	2ee\	-bos,	.	.	.	.	.	.	.
=122-	=122-	=122-	=122-	=122-	=122-	=122-	=122-	=122-	=122-	=122-	=122-	=122-	=122-	=122-
00r	.	00r	.	00r	.	00r	.	2.c/	men-	1ryy	.	.	1cc	men-
.	.	.	.	.	.	.	.	4d\	-te	.	.	.	.	.
=123-	=123-	=123-	=123-	=123-	=123-	=123-	=123-	=123-	=123-	=123-	=123-	=123-	=123-	=123-
.	.	.	.	.	.	.	.	2e\	cor-	1ryy	.	.	1cc	-te
.	.	.	.	.	.	.	.	2f\	.	.	.	.	.	.
=124-	=124-	=124-	=124-	=124-	=124-	=124-	=124-	=124-	=124-	=124-	=124-	=124-	=124-	=124-
.	.	.	.	.	.	.	.	4g\	.	1ryy	.	.	1b	cor-
.	.	.	.	.	.	.	.	4f\	.	.	.	.	.	.
.	.	.	.	.	.	.	.	4e\	.	.	.	.	.	.
.	.	.	.	.	.	.	.	4d\	.	.	.	.	.	.
=125-	=125-	=125-	=125-	=125-	=125-	=125-	=125-	=125-	=125-	=125-	=125-	=125-	=125-	=125-
.	.	.	.	.	.	.	.	4c\	.	1ryy	1r	.	1cc	-dis
.	.	.	.	.	.	.	.	4d\	.	.	.	.	.	.
.	.	.	.	.	.	.	.	4e\	-dis	.	.	.	.	.
.	.	.	.	.	.	.	.	4c\	.	.	.	.	.	.
=126-	=126-	=126-	=126-	=126-	=126-	=126-	=126-	=126-	=126-	=126-	=126-	=126-	=126-	=126-
1r	.	0r	.	0r	.	0r	.	1d	ſu-	1ryy	2r	.	1a	ſu-
.	.	.	.	.	.	.	.	.	.	.	2a\	men-	.	.
=127-	=127-	=127-	=127-	=127-	=127-	=127-	=127-	=127-	=127-	=127-	=127-	=127-	=127-	=127-
2r	.	.	.	.	.	.	.	1G	-i,	1ryy	4b\	-te	1g	-i
.	.	.	.	.	.	.	.	.	.	.	4cc\	.	.	.
2G/	men-	.	.	.	.	.	.	.	.	.	2dd\	cor-	.	.
=128-	=128-	=128-	=128-	=128-	=128-	=128-	=128-	=128-	=128-	=128-	=128-	=128-	=128-	=128-
1A	-te	1r	.	1r	.	1r	.	00r	.	1ryy	2dd\	-dis	00r	.
.	.	.	.	.	.	.	.	.	.	.	2cc#X\	ſu-	.	.
=129-	=129-	=129-	=129-	=129-	=129-	=129-	=129-	=129-	=129-	=129-	=129-	=129-	=129-	=129-
1B	cor-	2.g/	men-	2r	.	2r	.	.	.	1ryy	1dd	-i	.	.
.	.	.	.	1g\	men-	2dd\	men-	.	.	.	.	.	.	.
.	.	4f/	.	.	.	.	.	.	.	.	.	.	.	.
=130-	=130-	=130-	=130-	=130-	=130-	=130-	=130-	=130-	=130-	=130-	=130-	=130-	=130-	=130-
1c	-dis	1e	-te	.	.	2g/	-te	.	.	1ryy	0r	.	.	.
.	.	.	.	2e/	-te	1cc\	cor-	.	.	.	.	.	.	.
=131-	=131-	=131-	=131-	=131-	=131-	=131-	=131-	=131-	=131-	=131-	=131-	=131-	=131-	=131-
!	!	!	!	!LO:TX:t=P:problem=# below	!	!	!	!	!	!	!	!	!	!
0d	ſu-	2d/	cor-	2f#X/	cor-	.	.	.	.	1ryy	.	.	.	.
.	.	2d/	-dis	1g\	-dis	2b\	-dis	.	.	.	.	.	.	.
=132-	=132-	=132-	=132-	=132-	=132-	=132-	=132-	=132-	=132-	=132-	=132-	=132-	=132-	=132-
.	.	2.dd\	ſu-	.	.	1a	ſu-	1r	.	1ryy	1r	.	1r	.
.	.	.	.	2f#X/	ſu-	.	.	.	.	.	.	.	.	.
.	.	4cc\	-i	.	.	.	.	.	.	.	.	.	.	.
=133-	=133-	=133-	=133-	=133-	=133-	=133-	=133-	=133-	=133-	=133-	=133-	=133-	=133-	=133-
2G/	-i,	2b\	men-	00.g;;	-i.	2g/	-i	2r	.	1ryy	2r	.	2r	.
2G/	men-	2b\	-te	.	.	2b\	men-	2G/	men-	.	2b\	men-	2dd\	men-
=134-	=134-	=134-	=134-	=134-	=134-	=134-	=134-	=134-	=134-	=134-	=134-	=134-	=134-	=134-
!	!	!	!	!	!	!LO:SIC:v:s:l=-te	!	!	!	!	!	!	!	!
1c	-te	1g	cor-	.	.	1cc	-ti	1c	-te	1ryy	1g	-te	1ee	-te
=135-	=135-	=135-	=135-	=135-	=135-	=135-	=135-	=135-	=135-	=135-	=135-	=135-	=135-	=135-
2c/	cor-	2g/	-dis	.	.	2cc\	cor-	2c/	cor-	1ryy	2g/	cor-	2ee\	cor-
2G/	-dis	2d/	ſu-	.	.	2dd\	-dis	2G/	-dis	.	2b\	-diſ	2dd\	-dis
=136-	=136-	=136-	=136-	=136-	=136-	=136-	=136-	=136-	=136-	=136-	=136-	=136-	=136-	=136-
1c	ſu-	1g	.	.	.	1ee	ſu-	1c	ſu-	1ryy	2.g/	su-	1cc	ſu-
.	.	.	.	.	.	.	.	.	.	.	4a\	.	.	.
=137-	=137-	=137-	=137-	=137-	=137-	=137-	=137-	=137-	=137-	=137-	=137-	=137-	=137-	=137-
0G;	-i.	0g;<	-i.	.	.	0dd;;	-i.	0G;;	-i.	1ryy	0b;<	-i.	0b;;	-i.
=138-	=138-	=138-	=138-	=138-	=138-	=138-	=138-	=138-	=138-	=138-	=138-	=138-	=138-	=138-
.	.	.	.	.	.	.	.	.	.	1ryy	.	.	.	.
=139-	=139-	=139-	=139-	=139-	=139-	=139-	=139-	=139-	=139-	=139-	=139-	=139-	=139-	=139-
!LO:PB:g=original	!	!LO:LB:g=original	!	!LO:LB:g=original	!	!LO:PB:g=original	!	!LO:PB:g=original	!	!	!LO:PB:g=original	!	!LO:LB:g=original	!
!LO:TX:t=Esurientes	!	!LO:TX:t=Esurientes	!	!LO:TX:t=Esurientes.	!	!LO:TX:t=Esurien\ntes.	!	!	!	!	!	!	!	!
00r	.	00r	.	00r	.	00r	.	00r	.	1ryy	0r	.	1g	E-
=140-	=140-	=140-	=140-	=140-	=140-	=140-	=140-	=140-	=140-	=140-	=140-	=140-	=140-	=140-
.	.	.	.	.	.	.	.	.	.	1ryy	.	.	2a/	-su-
.	.	.	.	.	.	.	.	.	.	.	.	.	2g/	-ri-
=141-	=141-	=141-	=141-	=141-	=141-	=141-	=141-	=141-	=141-	=141-	=141-	=141-	=141-	=141-
.	.	.	.	.	.	.	.	.	.	1ryy	2r	.	1cc	-en-
.	.	.	.	.	.	.	.	.	.	.	2g/	E-	.	.
=142-	=142-	=142-	=142-	=142-	=142-	=142-	=142-	=142-	=142-	=142-	=142-	=142-	=142-	=142-
.	.	.	.	.	.	.	.	.	.	1ryy	2a\	-su-	0cc	-tes
.	.	.	.	.	.	.	.	.	.	.	2g/	-ri-	.	.
=143-	=143-	=143-	=143-	=143-	=143-	=143-	=143-	=143-	=143-	=143-	=143-	=143-	=143-	=143-
00r	.	00r	.	00r	.	00r	.	0r	.	1ryy	2.a\	-en-	.	.
.	.	.	.	.	.	.	.	.	.	.	4b\	.	.	.
=144-	=144-	=144-	=144-	=144-	=144-	=144-	=144-	=144-	=144-	=144-	=144-	=144-	=144-	=144-
.	.	.	.	.	.	.	.	.	.	1ryy	1ccny	-tes	2r	.
.	.	.	.	.	.	.	.	.	.	.	.	.	1cc\	im-
=145-	=145-	=145-	=145-	=145-	=145-	=145-	=145-	=145-	=145-	=145-	=145-	=145-	=145-	=145-
.	.	.	.	.	.	.	.	2G/	E-	1ryy	1r	.	.	.
.	.	.	.	.	.	.	.	4G/	-su-	.	.	.	2b\	-ple-
.	.	.	.	.	.	.	.	4G/	-ri-	.	.	.	.	.
=146-	=146-	=146-	=146-	=146-	=146-	=146-	=146-	=146-	=146-	=146-	=146-	=146-	=146-	=146-
.	.	.	.	.	.	.	.	1A	-en-	1ryy	2r	.	1cc	-vit
.	.	.	.	.	.	.	.	.	.	.	1cc\	im-	.	.
=147-	=147-	=147-	=147-	=147-	=147-	=147-	=147-	=147-	=147-	=147-	=147-	=147-	=147-	=147-
0r	.	0r	.	0r	.	0r	.	2G/	-tes	1ryy	.	.	1dd	bo-
.	.	.	.	.	.	.	.	2G/	im-	.	2b\	-ple-	.	.
=148-	=148-	=148-	=148-	=148-	=148-	=148-	=148-	=148-	=148-	=148-	=148-	=148-	=148-	=148-
.	.	.	.	.	.	.	.	2c/	-ple-	1ryy	1cc	-vit	2cc\	-nis
.	.	.	.	.	.	.	.	2A/	-vit	.	.	.	2.cc\	bo-
=149-	=149-	=149-	=149-	=149-	=149-	=149-	=149-	=149-	=149-	=149-	=149-	=149-	=149-	=149-
1r	.	1r	.	1r	.	1r	.	1G	bo-	1ryy	1dd	bo-	.	.
.	.	.	.	.	.	.	.	.	.	.	.	.	8b/L	.
.	.	.	.	.	.	.	.	.	.	.	.	.	8a/J	.
.	.	.	.	.	.	.	.	.	.	.	.	.	2b/	.
=150-	=150-	=150-	=150-	=150-	=150-	=150-	=150-	=150-	=150-	=150-	=150-	=150-	=150-	=150-
2r	.	2r	.	2r	.	2r	.	1c	-nis	1ryy	2cc\	-nis	1cc	-nis
2c/	Im-	2e/	Im-	2g/	Im-	2ee\	im-	.	.	.	2g/	im-	.	.
=151-	=151-	=151-	=151-	=151-	=151-	=151-	=151-	=151-	=151-	=151-	=151-	=151-	=151-	=151-
2B/	-ple-	2g/	-ple-	2b\	-ple-	2dd\	-ple-	1r	.	1ryy	4g/	-ple-	0r	.
.	.	.	.	.	.	.	.	.	.	.	4a\	.	.	.
2A/	-vit	2a\	-vit	2cc\	-vit	2cc\	-vit	.	.	.	4b\	.	.	.
.	.	.	.	.	.	.	.	.	.	.	4cc\	.	.	.
=152-	=152-	=152-	=152-	=152-	=152-	=152-	=152-	=152-	=152-	=152-	=152-	=152-	=152-	=152-
1G	bo-	2d/	bo-	2dd\	bo-	2b\	bo-	2r	.	1ryy	2dd\	.	.	.
.	.	2g/	-nis	2b\	-nis,	2g\	-nis	2G/	im-	.	2ee\	-vit	.	.
=153-	=153-	=153-	=153-	=153-	=153-	=153-	=153-	=153-	=153-	=153-	=153-	=153-	=153-	=153-
2G,</	-nis,	2r	.	1r	.	1r	.	2B/	-ple-	1ryy	2dd\	bo-	2r	.
*	*ij	*	*	*	*	*	*	*	*	*	*	*	*	*
2c/	Im-	2g/	im-	.	.	.	.	2c/	-vit	.	2cc\	-nis	2g/	im-
=154-	=154-	=154-	=154-	=154-	=154-	=154-	=154-	=154-	=154-	=154-	=154-	=154-	=154-	=154-
2G/	-ple-	2d/	-ple-	2r	.	2r	.	2d\	bo-	1ryy	2r	.	2b/	-ple-
*	*	*	*	*	*	*	*ij	*	*	*	*	*	*	*
!	!	!	!	!	!	!	!	!	!	!	!LO:SIC:v:t=custos dd	!	!	!
2c/	-vit	2e/	-vit	2ee\	im-	2g\	im-	2e\	-nis	.	2ee\	[im]-	2cc\	-vit
=155-	=155-	=155-	=155-	=155-	=155-	=155-	=155-	=155-	=155-	=155-	=155-	=155-	=155-	=155-
!	!	!	!	!	!	!	!	!	!	!	!LO:LB:g=original	!	!	!
2G/	bo-	0r	.	2dd\	-ple-	2b\	-ple-	1r	.	1ryy	2dd\	-ple-	2dd\	bo-
2c/	-nis,	.	.	2cc\	-vit	2cc\	-vit	.	.	.	2cc\	-vit	2ee\	-nis.
*	*Xij	*	*	*	*	*	*	*	*	*	*	*	*	*
=156-	=156-	=156-	=156-	=156-	=156-	=156-	=156-	=156-	=156-	=156-	=156-	=156-	=156-	=156-
1G	im-	.	.	2b\	bo-	2dd\	bo-	2r	.	1ryy	2b\	bo-	1r	.
.	.	.	.	4g/	.	2ee\	-nis	2g\	im-	.	2g/	-nis,	.	.
.	.	.	.	4g/	-nis,	.	.	.	.	.	.	.	.	.
=157-	=157-	=157-	=157-	=157-	=157-	=157-	=157-	=157-	=157-	=157-	=157-	=157-	=157-	=157-
*	*	*	*	*	*ij	*	*	*	*	*	*	*	*	*
!	!	!	!	!	!	!	!	!	!	!	!	!	!LO:SIC:v:t=custos gg	!
1.G	-ple-	2r	.	2b\	im-	2r	.	2d\	-ple-	1ryy	2r	.	2r	.
!	!	!	!	!	!	!	!	!	!	!	!	!	!LO:LB:g=original	!
.	.	2cc\	im-	2cc\	-ple-	4g\	im-	2e\	-vit	.	2g/	im-	2gg\	im-
.	.	.	.	.	.	4a\	.	.	.	.	.	.	.	.
=158-	=158-	=158-	=158-	=158-	=158-	=158-	=158-	=158-	=158-	=158-	=158-	=158-	=158-	=158-
.	.	2g\	-ple-	2dd\	.	2b\	-ple-	2B/	bo-	1ryy	2g/	-ple-	2dd\	-ple-
2c/	-vit	2g/	-vit	2cc\	-vit	1cc\	-vit	2G/	-nis	.	2cc\	-vit	2ee\	-vit
*	*	*	*	*	*Xij	*	*	*	*	*	*	*	*	*
=159-	=159-	=159-	=159-	=159-	=159-	=159-	=159-	=159-	=159-	=159-	=159-	=159-	=159-	=159-
!	!	!	!	!	!	!	!	!LO:SIC:v:t=custos c	!	!	!	!	!	!
1G	bo-	1g	bo-	2r	.	.	.	1f	bo-	1ryy	1dd	bo-	1dd	bo-
.	.	.	.	2g/	bo-	2b\	bo-	.	.	.	.	.	.	.
=160-	=160-	=160-	=160-	=160-	=160-	=160-	=160-	=160-	=160-	=160-	=160-	=160-	=160-	=160-
!	!	!	!	!	!	!	!	!LO:LB:g=original	!	!	!	!	!	!
1c	-nis	1e	-nis	1g	-nis	1cc	-nis	2c/	-nis	1ryy	2cc\	-nis	2ee\	-nis
.	.	.	.	.	.	.	.	2c/	et	.	2cc\	et	2ee\	et
*	*	*	*	*	*	*	*Xij	*	*	*	*	*	*	*
=161-	=161-	=161-	=161-	=161-	=161-	=161-	=161-	=161-	=161-	=161-	=161-	=161-	=161-	=161-
1r	.	1r	.	1r	.	1r	.	2.f\	di-	1ryy	2.cc\	di-	2.ff\	di-
.	.	.	.	.	.	.	.	4f\	-vi-	.	4cc\	-vi-	4ff\	-vi-
=162-	=162-	=162-	=162-	=162-	=162-	=162-	=162-	=162-	=162-	=162-	=162-	=162-	=162-	=162-
!	!	!	!	!	!	!LO:SIC:v:t=custos ee	!	!	!	!	!	!	!	!
2r	.	2r	.	2r	.	2r	.	1c	-tes	1ryy	1cc	-tes	1ee	-tes
!LO:SIC:v:t=custos F	!	!	!	!LO:SIC:v:t=custos cc	!	!LO:LB:g=original	!	!	!	!	!	!	!	!
2c/	et	2g/	et	2cc\	et	2ee\	et	.	.	.	.	.	.	.
=163-	=163-	=163-	=163-	=163-	=163-	=163-	=163-	=163-	=163-	=163-	=163-	=163-	=163-	=163-
!LO:LB:g=original	!	!	!	!LO:LB:g=original	!	!	!	!	!	!	!	!	!	!
2.F/	di-	2.a\	di-	2.cc\	di-	2.ff\	di-	1r	.	1ryy	1r	.	1r	.
4F/	-vi-	4a\	-vi-	4cc\	-vi-	4ff\	-vi-	.	.	.	.	.	.	.
=164-	=164-	=164-	=164-	=164-	=164-	=164-	=164-	=164-	=164-	=164-	=164-	=164-	=164-	=164-
1c	-tes	1g	-tes	1cc	-tes	2ee\	-tes	2r	.	1ryy	2r	.	2r	.
.	.	.	.	.	.	2cc\	di-	2c/	di-	.	2g/	di-	2ee\	di-
=165-	=165-	=165-	=165-	=165-	=165-	=165-	=165-	=165-	=165-	=165-	=165-	=165-	=165-	=165-
2r	.	2r	.	2r	.	1cc	-mi-	2A/	-mi-	1ryy	2a\	-mi-	2cc\	-mi-
!	!	!LO:SIC:v:t=custos e	!	!	!	!	!	!	!	!	!	!	!	!
2c/	di-	2g/	di-	2e/	di-	.	.	2c/	-sit	.	2g/	-sit	2ee\	-sit
=166-	=166-	=166-	=166-	=166-	=166-	=166-	=166-	=166-	=166-	=166-	=166-	=166-	=166-	=166-
!	!	!LO:LB:g=original	!	!	!	!	!	!	!	!	!	!	!	!
2e\	-mi-	2e/	-mi-	2g/	-mi-	1b	-sit,	2r	.	1ryy	2r	.	2r	.
2g\	-sit	2d/	-sit	2g/	-sit	.	.	2G/	in-	.	2b\	in-	2dd\	in-
=167-	=167-	=167-	=167-	=167-	=167-	=167-	=167-	=167-	=167-	=167-	=167-	=167-	=167-	=167-
1r	.	1r	.	1r	.	1cc	in-	1c	-a-	1ryy	1g	-a-	1ee	-a-
=168-	=168-	=168-	=168-	=168-	=168-	=168-	=168-	=168-	=168-	=168-	=168-	=168-	=168-	=168-
!	!	!	!	!LO:TX:t=P:problem=niewyraźne źródło	!	!	!	!	!	!	!	!	!	!
2r	.	2r	.	2ryy	.	1a	-a-	1d	-nes	1ryy	1a	-nes,	1dd	-nes
2d\	i-	2d/	i[n-	2fny/	in-	.	.	.	.	.	.	.	.	.
=169-	=169-	=169-	=169-	=169-	=169-	=169-	=169-	=169-	=169-	=169-	=169-	=169-	=169-	=169-
4e\	-na-	2.c/	-a]-	2g/	-a-	0g	-nes,	0r	.	1ryy	0r	.	1r	.
4f\	.	.	.	.	.	.	.	.	.	.	.	.	.	.
2g\	.	.	.	2d/	-nes	.	.	.	.	.	.	.	.	.
.	.	4B/	-nes	.	.	.	.	.	.	.	.	.	.	.
=170-	=170-	=170-	=170-	=170-	=170-	=170-	=170-	=170-	=170-	=170-	=170-	=170-	=170-	=170-
2c/	-nes	2c/	.	2e/	in-	.	.	.	.	1ryy	.	.	1ryy	.
2c/	i-	2d/	i-	2g/	-a-	.	.	.	.	.	.	.	.	.
=171-	=171-	=171-	=171-	=171-	=171-	=171-	=171-	=171-	=171-	=171-	=171-	=171-	=171-	=171-
2A/	-na-	4e/	-na-	2cc\	-nes.	1ryy	.	2r	.	1ryy	2r	.	2r	.
.	.	4f/	.	.	.	.	.	.	.	.	.	.	.	.
2G/	-nes.	2g/	-nes	2b\	.	.	.	2G/	in-	.	2dd\	in-	2b/	i[n]-
=172-	=172-	=172-	=172-	=172-	=172-	=172-	=172-	=172-	=172-	=172-	=172-	=172-	=172-	=172-
0r;	.	0r;	.	0r;	.	0r;<	.	2A/	-a-	1ryy	2cc\	-a-	2cc\	-a-
.	.	.	.	.	.	.	.	2G/	-nes.	.	2b;\	-nes.	2dd\	-nes.
=173-	=173-	=173-	=173-	=173-	=173-	=173-	=173-	=173-	=173-	=173-	=173-	=173-	=173-	=173-
!	!	!	!	!	!	!	!	!	!	!	!LO:SIC:v:t=custos ee	!	!	!
!	!	!	!	!	!	!	!	!	!	!	!LO:TX:t=P:problem=kreska pseudotaktowa	!	!	!
.	.	.	.	.	.	.	.	1r;	.	1ryy	1r	.	1r;<	.
=174-	=174-	=174-	=174-	=174-	=174-	=174-	=174-	=174-	=174-	=174-	=174-	=174-	=174-	=174-
!LO:LB:g=original	!	!LO:PB:g=original	!	!LO:LB:g=original	!	!LO:LB:g=original	!	!LO:LB:g=original	!	!	!LO:LB:g=original	!	!LO:PB:g=original	!
00r	.	00r	.	00r	.	00r	.	0r	.	1ryy	0r	.	1g	Si-
=175-	=175-	=175-	=175-	=175-	=175-	=175-	=175-	=175-	=175-	=175-	=175-	=175-	=175-	=175-
.	.	.	.	.	.	.	.	.	.	1ryy	.	.	2a/	-cut
.	.	.	.	.	.	.	.	.	.	.	.	.	2cc\	lo-
=176-	=176-	=176-	=176-	=176-	=176-	=176-	=176-	=176-	=176-	=176-	=176-	=176-	=176-	=176-
.	.	.	.	.	.	.	.	1r	.	1ryy	1r	.	2cc\	-cu-
.	.	.	.	.	.	.	.	.	.	.	.	.	2b/	-tus
=177-	=177-	=177-	=177-	=177-	=177-	=177-	=177-	=177-	=177-	=177-	=177-	=177-	=177-	=177-
.	.	.	.	.	.	.	.	2r	.	1ryy	2r	.	1cc	eſt
.	.	.	.	.	.	.	.	2c/	Si-	.	2ee\	Si-	.	.
=178-	=178-	=178-	=178-	=178-	=178-	=178-	=178-	=178-	=178-	=178-	=178-	=178-	=178-	=178-
0r	.	0r	.	0r	.	0r	.	2f\	-cut	1ryy	2cc\	-cut	0r	.
.	.	.	.	.	.	.	.	2e\	lo-	.	2ee\	lo-	.	.
=179-	=179-	=179-	=179-	=179-	=179-	=179-	=179-	=179-	=179-	=179-	=179-	=179-	=179-	=179-
.	.	.	.	.	.	.	.	2f\	-cu-	1ryy	2dd\	-cu-	.	.
.	.	.	.	.	.	.	.	2g\	-tus	.	2dd\	-tus	.	.
=180-	=180-	=180-	=180-	=180-	=180-	=180-	=180-	=180-	=180-	=180-	=180-	=180-	=180-	=180-
2r	.	2r	.	2r	.	2r	.	2c,</	eſt,	1ryy	2cc,<\	eſt,	2r	.
*	*	*	*	*	*	*	*	*	*ij	*	*	*ij	*	*
!	!	!	!	!	!	!	!	!	!	!	!LO:TX:t=P:problem=poprawiony tekst	!	!	!
2c/	Si-	2e/	Si-	2g/	Si-	2g/	Si-	2c/	Si-	.	2cc\	Si-	2ee\	ſi-
=181-	=181-	=181-	=181-	=181-	=181-	=181-	=181-	=181-	=181-	=181-	=181-	=181-	=181-	=181-
2f\	-cut	2a\	-cut	2f/	-cut	2a\	-cut	2F/	-cut	1ryy	2cc\	-cut	2ff\	-cut
2g\	lo-	2e/	lo-	2c/	lo-	2cc\	lo-	2c/	lo-	.	2ee\	lo-	2gg\	lo-
=182-	=182-	=182-	=182-	=182-	=182-	=182-	=182-	=182-	=182-	=182-	=182-	=182-	=182-	=182-
2f\	-cu-	2a\	-cu-	2c/	-cu-	2cc\	-cu-	2c/	-cu-	1ryy	2dd\	-cu-	2ff\	-cu-
2g\	-tus	2d/	-tus	2g/	-tus	2b\	-tus	2G/	-tus	.	2dd\	-tus	2dd\	-tus
=183-	=183-	=183-	=183-	=183-	=183-	=183-	=183-	=183-	=183-	=183-	=183-	=183-	=183-	=183-
2c/	eſt	2g/	eſt	2e/	eſt	2cc\	eſt	1c	eſt,	1ryy	1cc	eſt,	1ee	eſt.
2c/	ad	4c/	ad	4e/	ad	2ee\	ad	.	.	.	.	.	.	.
.	.	4d/	.	4f/	.	.	.	.	.	.	.	.	.	.
=184-	=184-	=184-	=184-	=184-	=184-	=184-	=184-	=184-	=184-	=184-	=184-	=184-	=184-	=184-
*	*	*	*	*	*	*	*	*	*Xij	*	*	*Xij	*	*
2c/	Pa-	4e/	Pa-	2g/	Pa-	2ee\	pa-	0r	.	1ryy	0r	.	0r	.
.	.	4f/	.	.	.	.	.	.	.	.	.	.	.	.
2B/	-tres	1g\	-tres	2g/	-tres	2dd\	-tres	.	.	.	.	.	.	.
=185-	=185-	=185-	=185-	=185-	=185-	=185-	=185-	=185-	=185-	=185-	=185-	=185-	=185-	=185-
1A	no-	.	.	1a	no-	1cc	no-	.	.	1ryy	.	.	.	.
.	.	2f#X/	no-	.	.	.	.	.	.	.	.	.	.	.
=186-	=186-	=186-	=186-	=186-	=186-	=186-	=186-	=186-	=186-	=186-	=186-	=186-	=186-	=186-
1G	-stros,	1g	-stros	1d	-stros	1b	-stros	2r	.	1ryy	2r	.	2r	.
.	.	.	.	.	.	.	.	2g\	ad	.	2b\	ad	2dd\	ad
=187-	=187-	=187-	=187-	=187-	=187-	=187-	=187-	=187-	=187-	=187-	=187-	=187-	=187-	=187-
0r	.	0r	.	0r	.	0r	.	2f\	Pa-	1ryy	4a\	pa-	2dd\	pa-
.	.	.	.	.	.	.	.	.	.	.	4b\	.	.	.
.	.	.	.	.	.	.	.	2e\	-tres	.	1cc\	-tres	2ee\	-tres
=188-	=188-	=188-	=188-	=188-	=188-	=188-	=188-	=188-	=188-	=188-	=188-	=188-	=188-	=188-
.	.	.	.	.	.	.	.	1d	no-	1ryy	.	.	1ff	no-
.	.	.	.	.	.	.	.	.	.	.	2b\	no-	.	.
=189-	=189-	=189-	=189-	=189-	=189-	=189-	=189-	=189-	=189-	=189-	=189-	=189-	=189-	=189-
2r	.	2r	.	2r	.	2r	.	2c/	-stros	1ryy	2cc\	-stros	2ee\	-stros
1c\	A-	1g\	A-	1e/	A-	1cc\	A-	1e\	A-	.	1cc\	A-	1ee\	A-
=190-	=190-	=190-	=190-	=190-	=190-	=190-	=190-	=190-	=190-	=190-	=190-	=190-	=190-	=190-
.	.	.	.	.	.	.	.	.	.	1ryy	.	.	.	.
2c/	-b[ra]-	2g/	-bra-	2e/	-bra-	2g/	-bra-	2c/	-bra-	.	2ee\	-bra-	2ee\	-bra-
=191-	=191-	=191-	=191-	=191-	=191-	=191-	=191-	=191-	=191-	=191-	=191-	=191-	=191-	=191-
!LO:SIC:v:s:l=-ham	!	!LO:SIC:v:s:l=-ham	!	!LO:SIC:v:s:l=-ham	!	!LO:SIC:v:s:l=-ham	!	!LO:SIC:v:l:s=-ham	!	!	!LO:SIC:v:s:l=-ham,	!	!LO:SIC:v:s:l=-ham	!
1c	-cham	1e	-cham	1g	-cham	1cc	-cham	1c	-cham	1ryy	1cc	-cham,	1ee	-cham
=192-	=192-	=192-	=192-	=192-	=192-	=192-	=192-	=192-	=192-	=192-	=192-	=192-	=192-	=192-
!	!	!	!	!	!	!	!	!LO:SIC:v:t=custos c	!	!	!	!	!	!
2r	.	2r	.	2r	.	2r	.	2r	.	1ryy	2r	.	2r	.
*	*ij	*	*	*	*ij	*	*	*	*	*	*	*	*	*
!	!	!	!	!	!	!	!	!LO:LB:g=original	!	!	!	!	!	!
1f\	A-	1a\	A-	1f/	A-	1cc\	A-	1c\	A-	.	1cc\	A-	1ff\	A-
=193-	=193-	=193-	=193-	=193-	=193-	=193-	=193-	=193-	=193-	=193-	=193-	=193-	=193-	=193-
.	.	.	.	.	.	.	.	.	.	1ryy	.	.	.	.
!	!	!	!	!	!	!	!	!	!	!	!	!	!LO:SIC:v:t=custos dd	!
2c/	-b[ra]-	2g/	-bra-	2g/	-bra-	2cc\	-bra-	2c/	-bra-	.	2cc\	-bra-	2ee\	-bra-
=194-	=194-	=194-	=194-	=194-	=194-	=194-	=194-	=194-	=194-	=194-	=194-	=194-	=194-	=194-
!LO:SIC:v:s:l=-ham	!	!LO:SIC:v:s:l=-ham	!	!LO:SIC:v:s:l=-ham	!	!LO:SIC:v:s:l=-ham	!	!LO:SIC:v:s:l=-ham	!	!	!LO:SIC:v:s:l=-h(am)	!	!LO:LB:g=original	!
1g	-cham	1g	-cham	1d	-cham	1dd	-cham	2G/	-cham	1ryy	2b\	-ch(am)	2dd\	-ham
.	.	.	.	.	.	.	.	2G/	et	.	2b\	et	2dd\	et
*	*Xij	*	*	*	*Xij	*	*	*	*	*	*	*	*	*
=195-	=195-	=195-	=195-	=195-	=195-	=195-	=195-	=195-	=195-	=195-	=195-	=195-	=195-	=195-
0r	.	0r	.	0r	.	0r	.	2.c/	ſe-	1ryy	2.cc\	ſe-	2.ee\	ſe-
.	.	.	.	.	.	.	.	4B/	-mi-	.	4g/	-mi-	4dd\	-mi-
=196-	=196-	=196-	=196-	=196-	=196-	=196-	=196-	=196-	=196-	=196-	=196-	=196-	=196-	=196-
.	.	.	.	.	.	.	.	2c/	-ni	1ryy	2cc\	-ni	2ee\	-ni
.	.	.	.	.	.	.	.	2d/	e-	.	2a\	e-	2dd\	e-
=197-	=197-	=197-	=197-	=197-	=197-	=197-	=197-	=197-	=197-	=197-	=197-	=197-	=197-	=197-
!	!	!	!	!LO:SIC:v:t=custos b	!	!	!	!	!	!	!	!	!	!
2r	.	2r	.	2r	.	2r	.	1G	-ius	1ryy	1b	-ius.	1dd	-ius
!LO:SIC:v:t=custos c	!	!LO:SIC:v:t=custos g	!	!LO:LB:g=original	!	!LO:SIC:v:t=custos ee	!	!	!	!	!	!	!	!
2c/	et	2g/	et	2b\	et	2dd\	et	.	.	.	.	.	.	.
=198-	=198-	=198-	=198-	=198-	=198-	=198-	=198-	=198-	=198-	=198-	=198-	=198-	=198-	=198-
!LO:LB:g=original	!	!LO:LB:g=original	!	!	!	!LO:LB:g==original	!	!	!	!	!	!	!	!
2.c/	ſe-	2.g/	ſe-	2.g/	ſe-	2.ee\	ſe-	0r	.	1ryy	0r	.	0r	.
4B/	-mi-	4d/	-mi-	4g/	-mi-	4dd\	-mi-	.	.	.	.	.	.	.
=199-	=199-	=199-	=199-	=199-	=199-	=199-	=199-	=199-	=199-	=199-	=199-	=199-	=199-	=199-
2A/	-ni	2e/	-ni	2a\	-ni	2cc\	-ni	.	.	1ryy	.	.	.	.
2F/	e-	2fny/	e-	2a\	e-	2a\	e-	.	.	.	.	.	.	.
=200-	=200-	=200-	=200-	=200-	=200-	=200-	=200-	=200-	=200-	=200-	=200-	=200-	=200-	=200-
!	!	!	!	!	!	!	!	!	!	!	!LO:SIC:v:t=custos b	!	!	!
1G	-ius	1d	-ius	1dd	-ius,	1b	-ius	2r	.	1ryy	2r	.	2r	.
!	!	!	!	!	!	!	!	!	!	!	!LO:LB:g=original	!	!	!
.	.	.	.	.	.	.	.	2G/	in	.	2b\	in	2dd\	in
=201-	=201-	=201-	=201-	=201-	=201-	=201-	=201-	=201-	=201-	=201-	=201-	=201-	=201-	=201-
2r	.	2r	.	0r	.	1r	.	2.c/	ſae-	1ryy	2.cc\	ſae-	2.ee\	ſae-
2c/	et	2e/	in	.	.	.	.	.	.	.	.	.	.	.
.	.	.	.	.	.	.	.	4c/	-cu-	.	4cc\	-cu-	4ee\	-cu-
=202-	=202-	=202-	=202-	=202-	=202-	=202-	=202-	=202-	=202-	=202-	=202-	=202-	=202-	=202-
2.F/	[ſe]-	2.f/	ſae-	.	.	2r	.	2A/	-la	1ryy	1cc	-la	2cc,<\	-la
.	.	.	.	.	.	2cc\	in	2A/	in	.	.	.	2cc\	in
4F/	-mi-	4f/	-cu-	.	.	.	.	.	.	.	.	.	.	.
=203-	=203-	=203-	=203-	=203-	=203-	=203-	=203-	=203-	=203-	=203-	=203-	=203-	=203-	=203-
2d\	-ni	2f/	-la	2r	.	2.dd\	ſae-	2.d\	ſae-	1ryy	1r	.	2.ff\	ſae-
2d\	e-	2d/	in	2a\	in	.	.	.	.	.	.	.	.	.
.	.	.	.	.	.	4dd\	-cu-	4d\	-cu-	.	.	.	4ee\	-cu-
=204-	=204-	=204-	=204-	=204-	=204-	=204-	=204-	=204-	=204-	=204-	=204-	=204-	=204-	=204-
2.g\	-ius	2.d/	ſae-	2.f/	ſae-	1dd	-la	1.G	-la	1ryy	4dd\	in	2dd,<\	-la
.	.	.	.	.	.	.	.	.	.	.	4cc\	.	.	.
.	.	.	.	.	.	.	.	.	.	.	4b\	.	2dd\	in
4f\	.	4d/	-cu-	4f/	-cu-	.	.	.	.	.	4a\	.	.	.
=205-	=205-	=205-	=205-	=205-	=205-	=205-	=205-	=205-	=205-	=205-	=205-	=205-	=205-	=205-
2.e\	in	1.e	-la	2g/	-la,	2r	.	.	.	1ryy	2.g/	ſae-	2.gg\	ſae-
.	.	.	.	2g/	in	2b\	in	2G/	in	.	.	.	.	.
4d\	sae-	.	.	.	.	.	.	.	.	.	4g/	-cu-	4ff\	-cu-
=206-	=206-	=206-	=206-	=206-	=206-	=206-	=206-	=206-	=206-	=206-	=206-	=206-	=206-	=206-
1.c	-cu-	.	.	1.g	ſae-	2.ee\	ſae-	1.c	ſae-	1ryy	2g/	-la	1.ee	.
.	.	2e/	in	.	.	.	.	.	.	.	2g/	in	.	.
.	.	.	.	.	.	4dd\	.	.	.	.	.	.	.	.
=207-	=207-	=207-	=207-	=207-	=207-	=207-	=207-	=207-	=207-	=207-	=207-	=207-	=207-	=207-
.	.	2.g/	ſae-	.	.	2cc\	-cu-	.	.	1ryy	2.cc\	ſae-	.	.
!	!	!	!	!	!	!	!	!	!	!	!	!	!LO:SIC:v:s:l=-lo-	!
2c/	-la.	.	.	2g/	-cu-	2cc\	-la.	2c/	-cu-	.	.	.	2ee\	-la-
.	.	4g/	-cu-	.	.	.	.	.	.	.	4cc\	-cu-	.	.
=208-	=208-	=208-	=208-	=208-	=208-	=208-	=208-	=208-	=208-	=208-	=208-	=208-	=208-	=208-
0g;<	.	0d;;	-la.	0g;	-la,	0dd;<	.	0G	-la.	1ryy	0b;<	-la.	0dd;<	-r(um).
=209-	=209-	=209-	=209-	=209-	=209-	=209-	=209-	=209-	=209-	=209-	=209-	=209-	=209-	=209-
.	.	.	.	.	.	.	.	.	.	1ryy	.	.	.	.
=210-	=210-	=210-	=210-	=210-	=210-	=210-	=210-	=210-	=210-	=210-	=210-	=210-	=210-	=210-
!LO:LB:g=original	!	!LO:LB:g=original	!	!LO:PB:g=original	!	!LO:LB:g=original	!	!LO:LB:g=original	!	!	!	!	!LO:LB:g=original	!
*	*	*	*	*	*	*	*	*	*	*	*	*	*M2/2	*
*	*	*	*	*	*	*	*	*	*	*	*	*	*met(c|)	*
0r	.	0r	.	0r	.	0r	.	1G	Si-	1ryy	1b	Si-	1dd	Si-
=211-	=211-	=211-	=211-	=211-	=211-	=211-	=211-	=211-	=211-	=211-	=211-	=211-	=211-	=211-
.	.	.	.	.	.	.	.	2c/	-cut	1ryy	2cc\	-cut	2ee\	-cut
.	.	.	.	.	.	.	.	2c/	e-	.	2cc\	e-	2ee\	e-
=212-	=212-	=212-	=212-	=212-	=212-	=212-	=212-	=212-	=212-	=212-	=212-	=212-	=212-	=212-
1G	Si-	2r	.	2r	.	2r	.	2G/	-rat,	1ryy	2b\	-rat,	2dd,<\	-rat
.	.	2g/	Si-	2b\	Si-	2dd\	Si-	2g\	ſi-	.	2dd\	ſi-	2b/	ſi-
=213-	=213-	=213-	=213-	=213-	=213-	=213-	=213-	=213-	=213-	=213-	=213-	=213-	=213-	=213-
2c/	-cut	2e/	-cut	2g/	-cut	2ee\	-cut	2e\	-cut	1ryy	2cc\	-cut	2cc\	-cut
2c/	e-	2g/	e-	2g/	e-	2ee\	e-	2c/	e-	.	2cc\	e-	2cc\	e-
=214-	=214-	=214-	=214-	=214-	=214-	=214-	=214-	=214-	=214-	=214-	=214-	=214-	=214-	=214-
1G	-rat	1g	-rat	1b	-rat	1dd	-rat	2g\	-rat	1ryy	2b\	-rat	2dd\	-rat
.	.	.	.	.	.	.	.	1g\	in	.	1b\	in	1dd\	in
=215-	=215-	=215-	=215-	=215-	=215-	=215-	=215-	=215-	=215-	=215-	=215-	=215-	=215-	=215-
0r	.	0r	.	0r	.	0r	.	.	.	1ryy	.	.	.	.
.	.	.	.	.	.	.	.	2e\	prin-	.	2cc\	prin-	2gg\	prin-
=216-	=216-	=216-	=216-	=216-	=216-	=216-	=216-	=216-	=216-	=216-	=216-	=216-	=216-	=216-
.	.	.	.	.	.	.	.	2.d\	-ci-	1ryy	2.a\	-ci-	2.ff\	-ci-
.	.	.	.	.	.	.	.	4d\	-pi-	.	4a\	-pi-	4ff\	-pi-
=217-	=217-	=217-	=217-	=217-	=217-	=217-	=217-	=217-	=217-	=217-	=217-	=217-	=217-	=217-
!	!	!	!	!	!	!	!	!	!	!	!LO:SIC:v:t=custos cc	!	!	!
2r	.	2r	.	2r	.	2r	.	1c	-o.	1ryy	1cc	-o	1ee	-o.
2c/	et	2c/	et	2g/	et	2ee\	et	.	.	.	.	.	.	.
=218-	=218-	=218-	=218-	=218-	=218-	=218-	=218-	=218-	=218-	=218-	=218-	=218-	=218-	=218-
!	!	!	!	!	!	!	!	!LO:TX:t=P:problem=niewyraźne źródło	!	!	!LO:LB:g=original	!	!	!
2B/	nunc	2d/	nunc	2g/	nunc	2dd\	nunc	2r	.	1ryy	2r	.	2r	.
2c/	et	2e/	et	2g/	et	2cc\	et	2c/	et	.	2cc\	et	2ee\	et
=219-	=219-	=219-	=219-	=219-	=219-	=219-	=219-	=219-	=219-	=219-	=219-	=219-	=219-	=219-
2G/	ſem-	2g/	ſem-	2g/	sem-	2b\	ſem-	2B/	nunc	1ryy	2dd\	nunc	2dd\	nunc
2c/	-per	2g/	-per	2e/	-per	2cc\	-per	2c/	et	.	2ee\	et	2cc\	et
=220-	=220-	=220-	=220-	=220-	=220-	=220-	=220-	=220-	=220-	=220-	=220-	=220-	=220-	=220-
!	!	!	!	!LO:TX:t=P:problem=niewyraźne źródło	!	!	!	!	!	!	!	!	!	!
2r	.	2r	.	1r	.	2r	.	2G/	ſem-	1ryy	2dd\	ſem-	2dd\	ſem-
*	*	*	*	*	*	*	*ij	*	*	*	*	*	*	*
!LO:TX:t=P::problem=poprawiony tekst&colon; [[in principio]]	!	!	!	!	!	!	!	!	!	!	!	!	!	!
2c/	et	2e/	et	.	.	2cc\	et	2c/	-per	.	2cc\	-per	2ee\	-per,
=221-	=221-	=221-	=221-	=221-	=221-	=221-	=221-	=221-	=221-	=221-	=221-	=221-	=221-	=221-
2B/	nunc	2d/	nunc	2r	.	2dd\	nunc	2r	.	1ryy	2r	.	2r	.
2c/	et	2e/	et	2cc\	et	2ee\	et	2c/	et	.	4g/	et	2cc\	et
.	.	.	.	.	.	.	.	.	.	.	4a\	.	.	.
=222-	=222-	=222-	=222-	=222-	=222-	=222-	=222-	=222-	=222-	=222-	=222-	=222-	=222-	=222-
0.G	ſem-	0.g	ſem-	2b\	nunc	2dd\	ſem-	1.g	nunc	1ryy	2b\	nunc	2dd\	nunc
.	.	.	.	2cc\	et	4cc,<\	-per	.	.	.	2g/	et	2ee\	et
.	.	.	.	.	.	4cc\	et	.	.	.	.	.	.	.
=223-	=223-	=223-	=223-	=223-	=223-	=223-	=223-	=223-	=223-	=223-	=223-	=223-	=223-	=223-
.	.	.	.	2dd\	ſem-	2b\	nunc	.	.	1ryy	0g	ſem-	2dd\	ſem-
!	!	!	!	!	!	!	!	!LO:SIC:v:t=custos g	!	!	!	!	!	!
.	.	.	.	4ee,<\	-per,	2ee\	et	2e\	et	.	.	.	4cc\	-per,
!	!	!	!	!	!	!	!	!	!	!	!	!	!LO:SIC:v:t=custos gg	!
.	.	.	.	4cc\	.	.	.	.	.	.	.	.	4cc\	et
=224-	=224-	=224-	=224-	=224-	=224-	=224-	=224-	=224-	=224-	=224-	=224-	=224-	=224-	=224-
!	!	!	!	!	!	!	!	!LO:LB:g=original	!	!	!	!	!LO:LB:g=original	!
.	.	.	.	1b	et	1dd	ſem-	1g	ſem-	1ryy	.	.	2.gg\	ſem-
.	.	.	.	.	.	.	.	.	.	.	.	.	4ff\	.
=225-	=225-	=225-	=225-	=225-	=225-	=225-	=225-	=225-	=225-	=225-	=225-	=225-	=225-	=225-
2c/	-per	2g/	-per	2cc,<\	ſem-	2cc\	-per	1c	-per	1ryy	1g	-per.	1ee	-per
*	*	*	*	*	*	*	*Xij	*	*	*	*	*	*	*
1c\	et	4e/	et	1cc\	-per,	1ee\	et	.	.	.	.	.	.	.
.	.	4d/	.	.	.	.	.	.	.	.	.	.	.	.
=226-	=226-	=226-	=226-	=226-	=226-	=226-	=226-	=226-	=226-	=226-	=226-	=226-	=226-	=226-
.	.	4e/	.	.	.	.	.	1r	.	1ryy	1r	.	1r	.
.	.	4f/	.	.	.	.	.	.	.	.	.	.	.	.
!	!	!	!	!	!	!LO:SIC:v:t=custos dd	!	!	!	!	!	!	!	!
2c/	in	2g/	in	2cc\	et	2ee\	in	.	.	.	.	.	.	.
=227-	=227-	=227-	=227-	=227-	=227-	=227-	=227-	=227-	=227-	=227-	=227-	=227-	=227-	=227-
!	!	!	!	!	!	!LO:LB:g=original	!	!	!	!	!	!	!	!
2.G/	ſae-	2.g/	sae-	2.b\	in	2.dd\	ſae-	2r	.	1ryy	2r	.	2r	.
.	.	.	.	.	.	.	.	1G/	et	.	1b\	et	1dd\	et
!	!	!LO:SIC:v:t=custos d	!	!LO:SIC:v:t=custos b	!	!	!	!	!	!	!	!	!	!
4G/	-cu-	4g/	-cu-	4b\	ſaecu-	4dd\	-cu-	.	.	.	.	.	.	.
=228-	=228-	=228-	=228-	=228-	=228-	=228-	=228-	=228-	=228-	=228-	=228-	=228-	=228-	=228-
!	!	!LO:LB:g=original	!	!LO:LB:g=original	!	!	!	!	!	!	!	!	!	!
1G	-la	1d	-la	1b	-la	1dd	-la	.	.	1ryy	.	.	.	.
.	.	.	.	.	.	.	.	2G/	in	.	2b\	in	2dd\	in
=229-	=229-	=229-	=229-	=229-	=229-	=229-	=229-	=229-	=229-	=229-	=229-	=229-	=229-	=229-
1r	.	1r	.	1r	.	1r	.	2.d\	ſae-	1ryy	2.dd\	ſae-	2.ff\	ſae-
.	.	.	.	.	.	.	.	4d\	-cu-	.	4dd\	-cu-	4ff\	-cu-
=230-	=230-	=230-	=230-	=230-	=230-	=230-	=230-	=230-	=230-	=230-	=230-	=230-	=230-	=230-
!	!	!	!	!	!	!	!	!	!	!	!	!	!LO:TX:t=P:problem=niewyraźne źródło	!
2r	.	2r	.	2r	.	2r	.	1A	-la	1ryy	1cc#X	-la	1ee	-la
1A/	ſae-	1c/	ſae-	1cc\	ſae-	1ee\	ſae-	.	.	.	.	.	.	.
=231-	=231-	=231-	=231-	=231-	=231-	=231-	=231-	=231-	=231-	=231-	=231-	=231-	=231-	=231-
.	.	.	.	.	.	.	.	0r	.	1ryy	0r	.	0r	.
2B/	-cu-	2d/	-cu-	2b\	-cu-	2dd\	-cu-	.	.	.	.	.	.	.
=232-	=232-	=232-	=232-	=232-	=232-	=232-	=232-	=232-	=232-	=232-	=232-	=232-	=232-	=232-
2c/	-lo-	4e/	-lo-	2ee\	-lo-	2cc\	-lo-	.	.	1ryy	.	.	.	.
.	.	4f/	.	.	.	.	.	.	.	.	.	.	.	.
!LO:SIC:v:t=custos d	!	!	!	!	!	!	!	!	!	!	!	!	!	!
2c/	-rum	1g\	-rum	2ee\	-rum	2cc\	-rum	.	.	.	.	.	.	.
=233-	=233-	=233-	=233-	=233-	=233-	=233-	=233-	=233-	=233-	=233-	=233-	=233-	=233-	=233-
!LO:LB:g=original	!	!	!	!	!	!	!	!	!	!	!	!	!	!
1d	A-	.	.	1dd	a-	1a	A-	1r	.	1ryy	1r	.	1r	.
.	.	2f#X/	A-	.	.	.	.	.	.	.	.	.	.	.
=234-	=234-	=234-	=234-	=234-	=234-	=234-	=234-	=234-	=234-	=234-	=234-	=234-	=234-	=234-
1G	-men	1g	-men	1dd	-men	1b	-men	2r	.	1ryy	2r	.	2r	.
.	.	.	.	.	.	.	.	1g\	et	.	1b\	et	1dd\	et
=235-	=235-	=235-	=235-	=235-	=235-	=235-	=235-	=235-	=235-	=235-	=235-	=235-	=235-	=235-
0r	.	0r	.	0r	.	0r	.	.	.	1ryy	.	.	.	.
.	.	.	.	.	.	.	.	2e\	in	.	2ccny\	in	2ee\	in
=236-	=236-	=236-	=236-	=236-	=236-	=236-	=236-	=236-	=236-	=236-	=236-	=236-	=236-	=236-
.	.	.	.	.	.	.	.	2.f\	ſae-	1ryy	2.a\	ſae-	2.cc\	ſae-
.	.	.	.	.	.	.	.	4f\	-cu-	.	4a\	-cu-	4cc\	-cu-
=237-	=237-	=237-	=237-	=237-	=237-	=237-	=237-	=237-	=237-	=237-	=237-	=237-	=237-	=237-
2r	.	2r	.	2r	.	2r	.	1c	-la	1ryy	1cc	-la	1ee	-la
*	*	*	*ij	*	*ij	*	*ij	*	*	*	*	*	*	*
1c\	ſae-	1g\	ſae-	1cc\	ſae-	1ee\	ſae-	.	.	.	.	.	.	.
=238-	=238-	=238-	=238-	=238-	=238-	=238-	=238-	=238-	=238-	=238-	=238-	=238-	=238-	=238-
.	.	.	.	.	.	.	.	0r	.	1ryy	0r	.	0r	.
2A/	-cu-	2a\	-cu-	2cc\	-cu-	2ee\	-cu-	.	.	.	.	.	.	.
=239-	=239-	=239-	=239-	=239-	=239-	=239-	=239-	=239-	=239-	=239-	=239-	=239-	=239-	=239-
2B-X/	-lo-	2fny/	-lo-	2b-X\	-lo-	2dd\	-lo-	.	.	1ryy	.	.	.	.
2G/	-rum	2g/	-rum	2b-\	-rum	1dd\	-rum	.	.	.	.	.	.	.
=240-	=240-	=240-	=240-	=240-	=240-	=240-	=240-	=240-	=240-	=240-	=240-	=240-	=240-	=240-
1A	A-	1e	a-	1a	a-	.	.	1r	.	1ryy	1r	.	1r	.
.	.	.	.	.	.	2cc#X\	A-	.	.	.	.	.	.	.
=241-	=241-	=241-	=241-	=241-	=241-	=241-	=241-	=241-	=241-	=241-	=241-	=241-	=241-	=241-
!	!	!LO:TX:t=P:problem=# below	!	!	!	!	!	!	!	!	!LO:SIC:v:t=custos dd	!	!	!
1d	-men	1f#X	-men	1a	-men	1dd	-men	2r	.	1ryy	2r	.	2r	.
*	*	*	*Xij	*	*	*	*Xij	*	*	*	*	*	*	*
!	!	!	!	!	!	!	!	!	!	!	!LO:LB:g=original	!	!	!
.	.	.	.	.	.	.	.	1d\	ſae-	.	1dd\	ſae-	1ff\	ſae-
=242-	=242-	=242-	=242-	=242-	=242-	=242-	=242-	=242-	=242-	=242-	=242-	=242-	=242-	=242-
0r	.	0r	.	0r	.	0r	.	.	.	1ryy	.	.	.	.
.	.	.	.	.	.	.	.	2d\	-cu-	.	2dd\	-cu-	2ff\	-cu-
=243-	=243-	=243-	=243-	=243-	=243-	=243-	=243-	=243-	=243-	=243-	=243-	=243-	=243-	=243-
.	.	.	.	.	.	.	.	2G/	-lo-	1ryy	2b\	-lo-	2dd\	-lo-
.	.	.	.	.	.	.	.	2c/	-rum	.	2cc\	-rum	2ee\	-rum
=244-	=244-	=244-	=244-	=244-	=244-	=244-	=244-	=244-	=244-	=244-	=244-	=244-	=244-	=244-
1r	.	1r	.	1r	.	1r	.	1d	A-	1ryy	1a	A-	1dd	A-
=245-	=245-	=245-	=245-	=245-	=245-	=245-	=245-	=245-	=245-	=245-	=245-	=245-	=245-	=245-
2r	.	2r	.	2r	.	2r	.	1G	-men,	1ryy	1b	-men.	1dd	-men
*	*ij	*	*	*	*	*	*	*	*	*	*	*	*	*
1g\	ſae-	1d/	ſae-	1g\	ſae-	1b\	ſae-	.	.	.	.	.	.	.
=246-	=246-	=246-	=246-	=246-	=246-	=246-	=246-	=246-	=246-	=246-	=246-	=246-	=246-	=246-
.	.	.	.	.	.	.	.	0r	.	1ryy	0r	.	0r	.
2e\	-cu-	2d/	-cu-	2g/	-cu-	2b\	-cu-	.	.	.	.	.	.	.
=247-	=247-	=247-	=247-	=247-	=247-	=247-	=247-	=247-	=247-	=247-	=247-	=247-	=247-	=247-
2f\	-lo-	2fny/	-lo-	2a/	-lo-	2a\	-lo-	.	.	1ryy	.	.	.	.
2c/	-rum	2e/	-rum	2g/	-rum	1ccny\	-rum	.	.	.	.	.	.	.
=248-	=248-	=248-	=248-	=248-	=248-	=248-	=248-	=248-	=248-	=248-	=248-	=248-	=248-	=248-
1g	A-	1d	A-	1g	a-	.	.	1r	.	1ryy	1r	.	1r	.
!	!	!	!	!	!	!LO:SIC:v:t=custos cc	!	!	!	!	!	!	!	!
.	.	.	.	.	.	2b\	A-	.	.	.	.	.	.	.
=249-	=249-	=249-	=249-	=249-	=249-	=249-	=249-	=249-	=249-	=249-	=249-	=249-	=249-	=249-
!	!	!LO:SIC:v:t=custos g	!	!	!	!LO:PB:g=original	!	!	!	!	!	!	!	!
1c	-men	1e	-men	1g	-men	1cc	-men,	2r	.	1ryy	2r	.	2r	.
*	*Xij	*	*	*	*Xij	*	*	*	*	*	*	*ij	*	*
.	.	.	.	.	.	.	.	1c\	ſae-	.	1g\	ſae-	1ee\	ſae-
=250-	=250-	=250-	=250-	=250-	=250-	=250-	=250-	=250-	=250-	=250-	=250-	=250-	=250-	=250-
!	!	!LO:LB:g=original	!	!	!	!	!	!	!	!	!	!	!	!
0r	.	0r	.	0r	.	0r	.	.	.	1ryy	.	.	.	.
!	!	!	!	!	!	!	!	!LO:SIC:v:t=custos A	!	!	!	!	!LO:SIC:v:t=custos cc	!
.	.	.	.	.	.	.	.	2B/	-cu-	.	2g/	-cu-	2dd\	-cu-
=251-	=251-	=251-	=251-	=251-	=251-	=251-	=251-	=251-	=251-	=251-	=251-	=251-	=251-	=251-
!	!	!	!	!	!	!	!	!LO:PB:g=original	!	!	!	!	!LO:LB:g=original	!
.	.	.	.	.	.	.	.	2A/	-lo-	1ryy	2cc\	-lo-	2cc\	-lo-
.	.	.	.	.	.	.	.	2G/	-rum	.	2dd\	-rum	2b/	-rum
=252-	=252-	=252-	=252-	=252-	=252-	=252-	=252-	=252-	=252-	=252-	=252-	=252-	=252-	=252-
1r	.	1r	.	1r	.	1r	.	1d	A-	1ryy	1dd	A-	1a	A-
=253-	=253-	=253-	=253-	=253-	=253-	=253-	=253-	=253-	=253-	=253-	=253-	=253-	=253-	=253-
!	!	!LO:TX:t=P:problem=dwukreska pseudotaktowa przerywana	!	!LO:SIC:v:t=custos b	!	!	!	!	!	!	!	!	!	!
2r	.	2r	.	2r	.	2r	.	1G	-men	1ryy	1dd	-men.	1b	-men
*	*	*	*ij	*	*	*	*	*	*	*	*	*	*	*
!	!	!	!	!LO:LB:g=original	!	!	!	!	!	!	!	!	!	!
4g\	ſae-	4g/	ſae-	4bny\	ſae-	4dd\	ſae-	.	.	.	.	.	.	.
4g\	-cu-	4g/	-cu-	4b\	-cu-	4dd\	-cu-	.	.	.	.	.	.	.
=254-	=254-	=254-	=254-	=254-	=254-	=254-	=254-	=254-	=254-	=254-	=254-	=254-	=254-	=254-
2e\	-lo-	2g/	-lo-	2g/	-lo-	2ee\	-lo-	1r	.	1ryy	1r	.	1r	.
2c/	-rum	2e/	-rum	1cc\	-rum	2ee\	-rum	.	.	.	.	.	.	.
=255-	=255-	=255-	=255-	=255-	=255-	=255-	=255-	=255-	=255-	=255-	=255-	=255-	=255-	=255-
1g	A-	1g	A-	.	.	1dd	A-	2r	.	1ryy	2r	.	2r	.
*	*	*	*	*	*	*	*	*	*	*	*	*	*	*ij
.	.	.	.	2b\	a-	.	.	4g\	ſae-	.	4b\	ſae-	4dd\	ſae-
.	.	.	.	.	.	.	.	4f\	-cu-	.	4a\	-cu-	4dd\	-cu-
=256-	=256-	=256-	=256-	=256-	=256-	=256-	=256-	=256-	=256-	=256-	=256-	=256-	=256-	=256-
1c	-men	1g	-men	1cc	-men	1cc	-men,	2e\	-lo-	1ryy	2g/	-lo-	2gg\	-lo-
.	.	.	.	.	.	.	.	2c/	-rum	.	1cc\	-rum	2ee\	-rum
*	*	*	*Xij	*	*	*	*	*	*	*	*	*	*	*
=257-	=257-	=257-	=257-	=257-	=257-	=257-	=257-	=257-	=257-	=257-	=257-	=257-	=257-	=257-
2r	.	2r	.	2r	.	2r	.	1G	A-	1ryy	.	.	1dd	A-
*	*ij	*	*	*	*ij	*	*	*	*	*	*	*	*	*
4g\	ſae-	4g/	ſae-	4b\	ſae-	4dd\	ſae-	.	.	.	2b\	A-	.	.
4f\	-cu-	4g/	-cu-	4a\	-cu-	4dd\	-cu-	.	.	.	.	.	.	.
=258-	=258-	=258-	=258-	=258-	=258-	=258-	=258-	=258-	=258-	=258-	=258-	=258-	=258-	=258-
2e\	-lo-	2g/	-lo-	2g/	-lo-	2ee\	-lo-	1c	-men,	1ryy	1cc	-men.	1cc	-men
*	*	*	*	*	*	*	*	*	*ij	*	*	*	*	*Xij
2c/	-rum	2e/	-rum	1cc\	-rum	2ee\	-rum	.	.	.	.	.	.	.
=259-	=259-	=259-	=259-	=259-	=259-	=259-	=259-	=259-	=259-	=259-	=259-	=259-	=259-	=259-
1g	A-	1g	A-	.	.	1dd	A-	2r	.	1ryy	2r	.	2r	.
.	.	.	.	2b\	a-	.	.	4g\	ſae-	.	4b\	ſae-	4dd\	ſae-
.	.	.	.	.	.	.	.	4f\	-cu-	.	4a\	-cu-	4dd\	-cu-
=260-	=260-	=260-	=260-	=260-	=260-	=260-	=260-	=260-	=260-	=260-	=260-	=260-	=260-	=260-
1c	-men	1g	-men	1cc	-men	1cc	-men,	2e\	-lo-	1ryy	2g/	-lo-	2gg\	-lo-
.	.	.	.	.	.	.	.	2c/	-rum	.	1cc\	-rum	2ee\	-rum
*	*Xij	*	*	*	*Xij	*	*	*	*	*	*	*	*	*
=261-	=261-	=261-	=261-	=261-	=261-	=261-	=261-	=261-	=261-	=261-	=261-	=261-	=261-	=261-
2r	.	1r	.	2r	.	0r	.	1G	A-	1ryy	.	.	1dd	A-
4g\	ſae-	.	.	4b\	ſae-	.	.	.	.	.	2b\	A-	.	.
!LO:SIC:v:t=custos c	!	!	!	!	!	!	!	!	!	!	!	!	!	!
4g\	-cu-	.	.	4b\	-cu-	.	.	.	.	.	.	.	.	.
=262-	=262-	=262-	=262-	=262-	=262-	=262-	=262-	=262-	=262-	=262-	=262-	=262-	=262-	=262-
!LO:LB:g=original	!	!	!	!	!	!	!	!	!	!	!	!	!	!
1.c	-lo-	2r	.	1.g	-lo-	.	.	2c/	-men,	1ryy	1cc	-men.	2ee,<\	-men
*	*	*	*	*	*	*	*	*	*Xij	*	*	*	*	*
.	.	4d/	ſae-	.	.	.	.	4c/	ſae-	.	.	.	2.cc\	A-
.	.	4d/	-cu-	.	.	.	.	4d\	-cu-	.	.	.	.	.
*	*	*	*	*	*	*	*	*	*	*	*	*Xij	*	*
=263-	=263-	=263-	=263-	=263-	=263-	=263-	=263-	=263-	=263-	=263-	=263-	=263-	=263-	=263-
.	.	2g/	-lo-	.	.	2.ee\	ſae-	2e\	-lo-	1ryy	1r	.	.	.
.	.	.	.	.	.	.	.	.	.	.	.	.	4dd\	.
2c/	-rum	2e/	-rum	2g/	-rum	.	.	2g\	-rum	.	.	.	4ee\	.
.	.	.	.	.	.	4dd\	-cu-	.	.	.	.	.	4ff\	.
=264-	=264-	=264-	=264-	=264-	=264-	=264-	=264-	=264-	=264-	=264-	=264-	=264-	=264-	=264-
0c	A-	0g	a-	1.g	A-	2cc\	-lo-	0c	A-	1ryy	0cc	A-	2.gg\	.
.	.	.	.	.	.	2cc\	-rum	.	.	.	.	.	.	.
.	.	.	.	.	.	.	.	.	.	.	.	.	4ff\	.
=265-	=265-	=265-	=265-	=265-	=265-	=265-	=265-	=265-	=265-	=265-	=265-	=265-	=265-	=265-
.	.	.	.	.	.	1cc	A-	.	.	1ryy	.	.	1ee	.
.	.	.	.	2a\	.	.	.	.	.	.	.	.	.	.
=266-	=266-	=266-	=266-	=266-	=266-	=266-	=266-	=266-	=266-	=266-	=266-	=266-	=266-	=266-
00g;<	-men.	00g	-men	00b;<	-men.	00dd;;	-men.	00G;;	-men.	1ryy	00b;;	-men.	00dd;;	-men.
=267-	=267-	=267-	=267-	=267-	=267-	=267-	=267-	=267-	=267-	=267-	=267-	=267-	=267-	=267-
.	.	.	.	.	.	.	.	.	.	1ryy	.	.	.	.
=268-	=268-	=268-	=268-	=268-	=268-	=268-	=268-	=268-	=268-	=268-	=268-	=268-	=268-	=268-
.	.	.	.	.	.	.	.	.	.	1ryy	.	.	.	.
=269-	=269-	=269-	=269-	=269-	=269-	=269-	=269-	=269-	=269-	=269-	=269-	=269-	=269-	=269-
.	.	.	.	.	.	.	.	.	.	1ryy	.	.	.	.
==	==	==	==	==	==	==	=-	==	==	==	==	==	==	==
*-	*-	*-	*-	*-	*-	*-	*-	*-	*-	*-	*-	*-	*-	*-
!!!system-decoration: [(s1,s2,s3,s4)][(s5,s6,s7,s8)]
!!!RDF**kern: > = above
!!!RDF**kern: < = below
!!!AIN: 8 empty
!!!ENC: Katarzyna Serwa
!!!END: 2021-10-11
!!!ENC: Anastazja Marusiak
!!!END: 2021-09-30
